M140 S50.000000
M109 T0 S215.000000
T0
M190 S50.000000

;Basic settings: Layer height: 0.1 Walls: 0.8 Fill: 20
;Print time: #P_TIME#
;Filament used: #F_AMNT#m #F_WGHT#g
;Filament cost: #F_COST#
G21        ;metric values
G90        ;absolute positioning
M107       ;start with the fan off
G28 X0 Y0  ;move X/Y to min endstops
G28 Z0     ;move Z to min endstops
G92 X0 Y0 Z0 E0         ;reset software position to front/left/z=0.0
G1 Z15.0 F?max_z_speed? ;move the platform down 15mm
M92 E835
G92 E0                  ;zero the extruded length
G1 F200 E3              ;extrude 3mm of feed stock
G92 E0                  ;zero the extruded length again
;go to the middle of the platform (disabled, as there is no need to go to the center)
;G1 X?machine_center_x? Y?machine_center_y? F6000
G1 F6000

;Layer count: 219
;LAYER:-2
;RAFT
G0 F6000 X78.50 Y82.50 Z0.20
;TYPE:SUPPORT
G1 F1800 X126.50 Y82.50 E1.24726
G1 X126.50 Y89.60 E1.43174
G1 X131.14 Y89.60 E1.55226
G1 X133.29 Y90.32 E1.61108
G1 X135.55 Y91.45 E1.67675
G1 X135.75 Y91.65 E1.68415
G1 X136.55 Y92.05 E1.70737
G1 X141.19 Y96.69 E1.87814
G1 X140.97 Y97.27 E1.89414
G1 X141.00 Y97.30 E1.89535
G1 X141.00 Y97.70 E1.90575
G1 X141.20 Y97.90 E1.91310
G1 X141.20 Y106.90 E2.14690
G1 X141.00 Y107.10 E2.15425
G1 X141.00 Y107.50 E2.16465
G1 X140.80 Y107.70 E2.17200
G1 X140.80 Y107.86 E2.17621
G1 X140.98 Y108.32 E2.18903
G1 X140.00 Y109.30 E2.22501
G1 X140.00 Y113.40 E2.33155
G1 X135.46 Y113.40 E2.44967
G1 X133.28 Y114.48 E2.51269
G1 X130.54 Y115.40 E2.58794
G1 X126.50 Y115.40 E2.69284
G1 X126.50 Y122.50 E2.87733
G1 X86.20 Y122.50 E3.92453
G1 X83.65 Y122.50 E3.99082
G1 X78.50 Y122.50 E4.12459
G1 X78.50 Y115.40 E4.30905
G1 X75.92 Y115.40 E4.37609
G1 X73.61 Y115.01 E4.43702
G1 X70.32 Y113.92 E4.52708
G1 X69.75 Y113.35 E4.54784
G1 X68.95 Y112.95 E4.57125
G1 X68.75 Y112.75 E4.57861
G1 X65.10 Y110.93 E4.68458
G1 X65.10 Y109.30 E4.72689
G1 X64.90 Y109.10 E4.73424
G1 X64.90 Y108.90 E4.73943
G1 X64.50 Y108.50 E4.75413
G1 X64.50 Y108.30 E4.75933
G1 X64.30 Y108.10 E4.76668
G1 X64.30 Y107.90 E4.77187
G1 X63.90 Y107.50 E4.78657
G1 X63.90 Y107.10 E4.79697
G1 X63.70 Y106.90 E4.80432
G1 X63.70 Y97.90 E5.03813
G1 X63.90 Y97.70 E5.04547
G1 X63.90 Y97.30 E5.05587
G1 X64.30 Y96.90 E5.07057
G1 X64.30 Y96.70 E5.07576
G1 X64.50 Y96.50 E5.08311
G1 X64.50 Y96.30 E5.08831
G1 X64.90 Y95.90 E5.10301
G1 X64.90 Y95.70 E5.10821
G1 X65.10 Y95.50 E5.11556
G1 X65.10 Y93.87 E5.15786
G1 X68.75 Y92.05 E5.26383
G1 X68.95 Y91.85 E5.27120
G1 X69.76 Y91.45 E5.29463
G1 X70.32 Y90.88 E5.31536
G1 X74.16 Y89.60 E5.42065
G1 X78.50 Y89.60 E5.53335
G1 X78.50 Y82.50 E5.71781
G0 F6000 X94.80 Y94.50
G1 F1800 X94.80 Y110.50 E6.13354
G1 X110.20 Y110.50 E6.53367
G1 X110.20 Y94.50 E6.94942
G1 X94.80 Y94.50 E7.34956
G0 F6000 X97.50 Y94.74
G1 F1800 X97.50 Y82.26 E7.67387
G0 F6000 X94.50 Y82.26
G1 F1800 X94.50 Y122.74 E8.72570
G0 F6000 X91.50 Y122.74
G1 F1800 X91.50 Y82.26 E9.77752
G0 F6000 X88.50 Y82.26
G1 F1800 X88.50 Y122.74 E10.82935
G0 F6000 X85.50 Y122.74
G1 F1800 X85.50 Y82.26 E11.88117
G0 F6000 X82.50 Y82.26
G1 F1800 X82.50 Y122.74 E12.93300
G0 F6000 X79.50 Y122.74
G1 F1800 X79.50 Y82.26 E13.98483
G0 F6000 X76.50 Y89.36
G1 F1800 X76.50 Y115.64 E14.66770
G0 F6000 X73.50 Y115.23
G1 F1800 X73.50 Y89.57 E15.33454
G0 F6000 X70.50 Y90.57
G1 F1800 X70.50 Y114.23 E15.94941
G0 F6000 X67.50 Y112.39
G1 F1800 X67.50 Y92.41 E16.46881
G0 F6000 X64.50 Y95.96
G1 F1800 X64.50 Y108.84 E16.80336
G0 F6000 X97.50 Y110.26
G1 F1800 X97.50 Y122.74 E17.12762
G0 F6000 X100.50 Y122.74
G1 F1800 X100.50 Y110.26 E17.45188
G0 F6000 X103.50 Y110.26
G1 F1800 X103.50 Y122.74 E17.77614
G0 F6000 X106.50 Y122.74
G1 F1800 X106.50 Y110.26 E18.10040
G0 F6000 X109.50 Y110.26
G1 F1800 X109.50 Y122.74 E18.42466
G0 F6000 X112.50 Y122.74
G1 F1800 X112.50 Y82.26 E19.47649
G0 F6000 X109.50 Y82.26
G1 F1800 X109.50 Y94.74 E19.80080
G0 F6000 X106.50 Y94.74
G1 F1800 X106.50 Y82.26 E20.12511
G0 F6000 X103.50 Y82.26
G1 F1800 X103.50 Y94.74 E20.44943
G0 F6000 X100.50 Y94.74
G1 F1800 X100.50 Y82.26 E20.77374
G0 F6000 X115.50 Y82.26
G1 F1800 X115.50 Y122.74 E21.82556
G0 F6000 X118.50 Y122.74
G1 F1800 X118.50 Y82.26 E22.87739
G0 F6000 X121.50 Y82.26
G1 F1800 X121.50 Y122.74 E23.92922
G0 F6000 X124.50 Y122.74
G1 F1800 X124.50 Y82.26 E24.98104
G0 F6000 X127.50 Y89.36
G1 F1800 X127.50 Y115.64 E25.66391
G0 F6000 X130.50 Y115.64
G1 F1800 X130.50 Y89.36 E26.34679
G0 F6000 X133.50 Y90.16
G1 F1800 X133.50 Y114.64 E26.98309
G0 F6000 X136.50 Y113.64
G1 F1800 X136.50 Y91.75 E27.55176
G0 F6000 X139.50 Y94.66
G1 F1800 X139.50 Y113.64 E28.04490
M106 S255
;LAYER:-1
;RAFT
G0 F6000 X140.12 Y113.20 Z0.30
;TYPE:SUPPORT
G1 F2400 X69.18 Y113.20 E28.50575
G0 F6000 X70.23 Y114.00
G1 F2400 X134.52 Y114.00 E28.92336
G0 F6000 X132.71 Y114.80
G1 F2400 X72.59 Y114.80 E29.31394
G0 F6000 X67.78 Y112.40
G1 F2400 X140.12 Y112.40 E29.78388
G0 F6000 X140.12 Y111.60
G1 F2400 X66.18 Y111.60 E30.26421
G0 F6000 X64.98 Y110.80
G1 F2400 X140.12 Y110.80 E30.75234
G0 F6000 X140.12 Y110.00
G1 F2400 X110.08 Y110.00 E30.94749
G0 F6000 X110.08 Y109.20
G1 F2400 X140.27 Y109.20 E31.14360
G0 F6000 X141.07 Y108.40
G1 F2400 X110.08 Y108.40 E31.34491
G0 F6000 X110.08 Y107.60
G1 F2400 X141.07 Y107.60 E31.54622
G0 F6000 X141.32 Y106.80
G1 F2400 X110.08 Y106.80 E31.74916
G0 F6000 X110.08 Y106.00
G1 F2400 X141.32 Y106.00 E31.95211
G0 F6000 X141.32 Y105.20
G1 F2400 X110.08 Y105.20 E32.15505
G0 F6000 X110.08 Y104.40
G1 F2400 X141.32 Y104.40 E32.35800
G0 F6000 X141.32 Y103.60
G1 F2400 X110.08 Y103.60 E32.56094
G0 F6000 X110.08 Y102.80
G1 F2400 X141.32 Y102.80 E32.76389
G0 F6000 X141.32 Y102.00
G1 F2400 X110.08 Y102.00 E32.96683
G0 F6000 X110.08 Y101.20
G1 F2400 X141.32 Y101.20 E33.16978
G0 F6000 X141.32 Y100.40
G1 F2400 X110.08 Y100.40 E33.37272
G0 F6000 X110.08 Y99.60
G1 F2400 X141.32 Y99.60 E33.57567
G0 F6000 X141.32 Y98.80
G1 F2400 X110.08 Y98.80 E33.77861
G0 F6000 X110.08 Y98.00
G1 F2400 X141.32 Y98.00 E33.98156
G0 F6000 X141.12 Y97.20
G1 F2400 X110.08 Y97.20 E34.18322
G0 F6000 X110.08 Y96.40
G1 F2400 X141.07 Y96.40 E34.38454
G0 F6000 X140.27 Y95.60
G1 F2400 X110.08 Y95.60 E34.58066
G0 F6000 X110.08 Y94.80
G1 F2400 X139.47 Y94.80 E34.77159
G0 F6000 X138.67 Y94.00
G1 F2400 X64.98 Y94.00 E35.25030
G0 F6000 X64.98 Y94.80
G1 F2400 X94.92 Y94.80 E35.44480
G0 F6000 X94.92 Y95.60
G1 F2400 X64.83 Y95.60 E35.64027
G0 F6000 X64.38 Y96.40
G1 F2400 X94.92 Y96.40 E35.83867
G0 F6000 X94.92 Y97.20
G1 F2400 X63.83 Y97.20 E36.04063
G0 F6000 X63.58 Y98.00
G1 F2400 X94.92 Y98.00 E36.24423
G0 F6000 X94.92 Y98.80
G1 F2400 X63.58 Y98.80 E36.44782
G0 F6000 X63.58 Y99.60
G1 F2400 X94.92 Y99.60 E36.65142
G0 F6000 X94.92 Y100.40
G1 F2400 X63.58 Y100.40 E36.85501
G0 F6000 X63.58 Y101.20
G1 F2400 X94.92 Y101.20 E37.05861
G0 F6000 X94.92 Y102.00
G1 F2400 X63.58 Y102.00 E37.26220
G0 F6000 X63.58 Y102.80
G1 F2400 X94.92 Y102.80 E37.46580
G0 F6000 X94.92 Y103.60
G1 F2400 X63.58 Y103.60 E37.66939
G0 F6000 X63.58 Y104.40
G1 F2400 X94.92 Y104.40 E37.87299
G0 F6000 X94.92 Y105.20
G1 F2400 X63.58 Y105.20 E38.07658
G0 F6000 X63.58 Y106.00
G1 F2400 X94.92 Y106.00 E38.28018
G0 F6000 X94.92 Y106.80
G1 F2400 X63.58 Y106.80 E38.48377
G0 F6000 X63.83 Y107.60
G1 F2400 X94.92 Y107.60 E38.68574
G0 F6000 X94.92 Y108.40
G1 F2400 X64.38 Y108.40 E38.88414
G0 F6000 X64.83 Y109.20
G1 F2400 X94.92 Y109.20 E39.07960
G0 F6000 X94.92 Y110.00
G1 F2400 X64.98 Y110.00 E39.27410
G0 F6000 X78.38 Y115.60
G1 F2400 X126.62 Y115.60 E39.58748
G0 F6000 X126.62 Y116.40
G1 F2400 X78.38 Y116.40 E39.90085
G0 F6000 X78.38 Y117.20
G1 F2400 X126.62 Y117.20 E40.21422
G0 F6000 X126.62 Y118.00
G1 F2400 X78.38 Y118.00 E40.52760
G0 F6000 X78.38 Y118.80
G1 F2400 X126.62 Y118.80 E40.84097
G0 F6000 X126.62 Y119.60
G1 F2400 X78.38 Y119.60 E41.15434
G0 F6000 X78.38 Y120.40
G1 F2400 X126.62 Y120.40 E41.46771
G0 F6000 X126.62 Y121.20
G1 F2400 X78.38 Y121.20 E41.78109
G0 F6000 X78.38 Y122.00
G1 F2400 X126.62 Y122.00 E42.09446
G0 F6000 X137.87 Y93.20
G1 F2400 X66.18 Y93.20 E42.56018
G0 F6000 X67.78 Y92.40
G1 F2400 X137.07 Y92.40 E43.01030
G0 F6000 X135.93 Y91.60
G1 F2400 X69.18 Y91.60 E43.44389
G0 F6000 X70.23 Y90.80
G1 F2400 X134.53 Y90.80 E43.86155
G0 F6000 X132.72 Y90.00
G1 F2400 X72.59 Y90.00 E44.25218
G0 F6000 X78.38 Y89.20
G1 F2400 X126.62 Y89.20 E44.56555
G0 F6000 X126.62 Y88.40
G1 F2400 X78.38 Y88.40 E44.87892
G0 F6000 X78.38 Y87.60
G1 F2400 X126.62 Y87.60 E45.19230
G0 F6000 X126.62 Y86.80
G1 F2400 X78.38 Y86.80 E45.50567
G0 F6000 X78.38 Y86.00
G1 F2400 X126.62 Y86.00 E45.81904
G0 F6000 X126.62 Y85.20
G1 F2400 X78.38 Y85.20 E46.13242
G0 F6000 X78.38 Y84.40
G1 F2400 X126.62 Y84.40 E46.44579
G0 F6000 X126.62 Y83.60
G1 F2400 X78.38 Y83.60 E46.75916
G0 F6000 X78.38 Y82.80
G1 F2400 X126.62 Y82.80 E47.07253
;LAYER:0
M107
G1 F1800 E39.57253
G1 Z0.38
G0 F6000 X120.90 Y88.10 Z0.50
;TYPE:WALL-INNER
G1 Z0.50
G1 F1800 E47.07253
G1 X120.90 Y116.90 E47.44671
G1 X84.10 Y116.90 E47.92483
G1 X84.10 Y88.10 E48.29898
G1 X120.90 Y88.10 E48.77709
G0 F6000 X115.80 Y88.90
G1 F1800 X89.20 Y88.90 E49.12267
G1 X89.20 Y116.10 E49.47605
G1 X115.80 Y116.10 E49.82163
G1 X115.80 Y88.90 E50.17502
G0 F6000 X115.40 Y89.30
;TYPE:WALL-OUTER
G1 F1800 X89.60 Y89.30 E50.51020
G1 X89.60 Y115.70 E50.85319
G1 X115.40 Y115.70 E51.18837
G1 X115.40 Y89.30 E51.53137
G0 F6000 X115.40 Y89.00
G0 X121.00 Y87.91
G0 X121.30 Y87.70
G1 F1800 X121.30 Y117.30 E51.91594
G1 X83.70 Y117.30 E52.40445
G1 X83.70 Y87.70 E52.78899
G1 X121.30 Y87.70 E53.27750
G0 F6000 X120.82 Y88.29
;TYPE:FILL
G1 F1800 X120.71 Y88.18 E53.27957
G0 F6000 X120.14 Y88.18
G1 F1800 X120.82 Y88.86 E53.29205
G0 F6000 X120.82 Y89.42
G1 F1800 X119.58 Y88.18 E53.31492
G0 F6000 X119.01 Y88.18
G1 F1800 X120.82 Y89.99 E53.34817
G0 F6000 X120.82 Y90.56
G1 F1800 X118.44 Y88.18 E53.39183
G0 F6000 X117.88 Y88.18
G1 F1800 X120.82 Y91.12 E53.44589
G0 F6000 X120.82 Y91.69
G1 F1800 X117.31 Y88.18 E53.51032
G0 F6000 X116.75 Y88.18
G1 F1800 X120.82 Y92.25 E53.58516
G0 F6000 X120.82 Y92.82
G1 F1800 X116.18 Y88.18 E53.67039
G0 F6000 X115.62 Y88.18
G1 F1800 X120.82 Y93.38 E53.76601
G0 F6000 X120.82 Y93.95
G1 F1800 X115.88 Y89.01 E53.85680
G0 F6000 X115.69 Y88.82
G1 F1800 X115.05 Y88.18 E53.86854
G0 F6000 X114.48 Y88.18
G1 F1800 X115.12 Y88.82 E53.88029
G0 F6000 X114.56 Y88.82
G1 F1800 X113.92 Y88.18 E53.89203
G0 F6000 X113.35 Y88.18
G1 F1800 X113.99 Y88.82 E53.90377
G0 F6000 X113.43 Y88.82
G1 F1800 X112.79 Y88.18 E53.91551
G0 F6000 X112.22 Y88.18
G1 F1800 X112.86 Y88.82 E53.92725
G0 F6000 X112.30 Y88.82
G1 F1800 X111.66 Y88.18 E53.93899
G0 F6000 X111.09 Y88.18
G1 F1800 X111.73 Y88.82 E53.95073
G0 F6000 X111.16 Y88.82
G1 F1800 X110.53 Y88.18 E53.96247
G0 F6000 X109.96 Y88.18
G1 F1800 X110.60 Y88.82 E53.97421
G0 F6000 X110.03 Y88.82
G1 F1800 X109.39 Y88.18 E53.98596
G0 F6000 X108.83 Y88.18
G1 F1800 X109.47 Y88.82 E53.99771
G0 F6000 X108.90 Y88.82
G1 F1800 X108.26 Y88.18 E54.00945
G0 F6000 X107.70 Y88.18
G1 F1800 X108.33 Y88.82 E54.02119
G0 F6000 X107.77 Y88.82
G1 F1800 X107.13 Y88.18 E54.03294
G0 F6000 X106.56 Y88.18
G1 F1800 X107.20 Y88.82 E54.04468
G0 F6000 X106.64 Y88.82
G1 F1800 X106.00 Y88.18 E54.05642
G0 F6000 X105.43 Y88.18
G1 F1800 X106.07 Y88.82 E54.06817
G0 F6000 X105.51 Y88.82
G1 F1800 X104.87 Y88.18 E54.07991
G0 F6000 X104.30 Y88.18
G1 F1800 X104.94 Y88.82 E54.09165
G0 F6000 X104.38 Y88.82
G1 F1800 X103.74 Y88.18 E54.10340
G0 F6000 X103.17 Y88.18
G1 F1800 X103.81 Y88.82 E54.11514
G0 F6000 X103.24 Y88.82
G1 F1800 X102.61 Y88.18 E54.12688
G0 F6000 X102.04 Y88.18
G1 F1800 X102.68 Y88.82 E54.13862
G0 F6000 X102.11 Y88.82
G1 F1800 X101.47 Y88.18 E54.15036
G0 F6000 X100.91 Y88.18
G1 F1800 X101.55 Y88.82 E54.16211
G0 F6000 X100.98 Y88.82
G1 F1800 X100.34 Y88.18 E54.17385
G0 F6000 X99.78 Y88.18
G1 F1800 X100.42 Y88.82 E54.18559
G0 F6000 X99.85 Y88.82
G1 F1800 X99.21 Y88.18 E54.19733
G0 F6000 X98.64 Y88.18
G1 F1800 X99.28 Y88.82 E54.20907
G0 F6000 X98.72 Y88.82
G1 F1800 X98.08 Y88.18 E54.22082
G0 F6000 X97.51 Y88.18
G1 F1800 X98.15 Y88.82 E54.23256
G0 F6000 X97.59 Y88.82
G1 F1800 X96.95 Y88.18 E54.24430
G0 F6000 X96.38 Y88.18
G1 F1800 X97.02 Y88.82 E54.25605
G0 F6000 X96.46 Y88.82
G1 F1800 X95.82 Y88.18 E54.26779
G0 F6000 X95.25 Y88.18
G1 F1800 X95.89 Y88.82 E54.27953
G0 F6000 X95.33 Y88.82
G1 F1800 X94.69 Y88.18 E54.29128
G0 F6000 X94.12 Y88.18
G1 F1800 X94.76 Y88.82 E54.30302
G0 F6000 X94.19 Y88.82
G1 F1800 X93.55 Y88.18 E54.31476
G0 F6000 X92.99 Y88.18
G1 F1800 X93.63 Y88.82 E54.32651
G0 F6000 X93.06 Y88.82
G1 F1800 X92.42 Y88.18 E54.33825
G0 F6000 X91.86 Y88.18
G1 F1800 X92.50 Y88.82 E54.35000
G0 F6000 X91.93 Y88.82
G1 F1800 X91.29 Y88.18 E54.36174
G0 F6000 X90.73 Y88.18
G1 F1800 X91.36 Y88.82 E54.37348
G0 F6000 X90.80 Y88.82
G1 F1800 X90.16 Y88.18 E54.38522
G0 F6000 X89.59 Y88.18
G1 F1800 X90.23 Y88.82 E54.39696
G0 F6000 X89.67 Y88.82
G1 F1800 X89.03 Y88.18 E54.40871
G0 F6000 X88.46 Y88.18
G1 F1800 X89.12 Y88.84 E54.42079
G0 F6000 X89.12 Y89.40
G1 F1800 X87.90 Y88.18 E54.44326
G0 F6000 X87.33 Y88.18
G1 F1800 X89.12 Y89.97 E54.47613
G0 F6000 X89.12 Y90.53
G1 F1800 X86.77 Y88.18 E54.51939
G0 F6000 X86.20 Y88.18
G1 F1800 X89.12 Y91.10 E54.57304
G0 F6000 X89.12 Y91.67
G1 F1800 X85.63 Y88.18 E54.63710
G0 F6000 X85.07 Y88.18
G1 F1800 X89.12 Y92.23 E54.71154
G0 F6000 X89.12 Y92.80
G1 F1800 X84.50 Y88.18 E54.79637
G0 F6000 X84.18 Y88.42
G1 F1800 X89.12 Y93.36 E54.88713
G0 F6000 X89.12 Y93.93
G1 F1800 X84.18 Y88.99 E54.97788
G0 F6000 X84.18 Y89.56
G1 F1800 X89.12 Y94.49 E55.06863
G0 F6000 X89.12 Y95.06
G1 F1800 X84.18 Y90.12 E55.15939
G0 F6000 X84.18 Y90.69
G1 F1800 X89.12 Y95.63 E55.25015
G0 F6000 X89.12 Y96.19
G1 F1800 X84.18 Y91.25 E55.34089
G0 F6000 X84.18 Y91.82
G1 F1800 X89.12 Y96.76 E55.43165
G0 F6000 X89.12 Y97.32
G1 F1800 X84.18 Y92.38 E55.52241
G0 F6000 X84.18 Y92.95
G1 F1800 X89.12 Y97.89 E55.61317
G0 F6000 X89.12 Y98.45
G1 F1800 X84.18 Y93.51 E55.70392
G0 F6000 X84.18 Y94.08
G1 F1800 X89.12 Y99.02 E55.79468
G0 F6000 X89.12 Y99.59
G1 F1800 X84.18 Y94.65 E55.88544
G0 F6000 X84.18 Y95.21
G1 F1800 X89.12 Y100.15 E55.97620
G0 F6000 X89.12 Y100.72
G1 F1800 X84.18 Y95.78 E56.06695
G0 F6000 X84.18 Y96.34
G1 F1800 X89.12 Y101.28 E56.15771
G0 F6000 X89.12 Y101.85
G1 F1800 X84.18 Y96.91 E56.24847
G0 F6000 X84.18 Y97.47
G1 F1800 X89.12 Y102.41 E56.33923
G0 F6000 X89.12 Y102.98
G1 F1800 X84.18 Y98.04 E56.42998
G0 F6000 X84.18 Y98.61
G1 F1800 X89.12 Y103.55 E56.52073
G0 F6000 X89.12 Y104.11
G1 F1800 X84.18 Y99.17 E56.61149
G0 F6000 X84.18 Y99.74
G1 F1800 X89.12 Y104.68 E56.70225
G0 F6000 X89.12 Y105.24
G1 F1800 X84.18 Y100.30 E56.79299
G0 F6000 X84.18 Y100.87
G1 F1800 X89.12 Y105.81 E56.88375
G0 F6000 X89.12 Y106.37
G1 F1800 X84.18 Y101.43 E56.97451
G0 F6000 X84.18 Y102.00
G1 F1800 X89.12 Y106.94 E57.06527
G0 F6000 X89.12 Y107.50
G1 F1800 X84.18 Y102.56 E57.15602
G0 F6000 X84.18 Y103.13
G1 F1800 X89.12 Y108.07 E57.24678
G0 F6000 X89.12 Y108.64
G1 F1800 X84.18 Y103.70 E57.33754
G0 F6000 X84.18 Y104.26
G1 F1800 X89.12 Y109.20 E57.42830
G0 F6000 X89.12 Y109.77
G1 F1800 X84.18 Y104.83 E57.51905
G0 F6000 X84.18 Y105.39
G1 F1800 X89.12 Y110.33 E57.60981
G0 F6000 X89.12 Y110.90
G1 F1800 X84.18 Y105.96 E57.70057
G0 F6000 X84.18 Y106.53
G1 F1800 X89.12 Y111.47 E57.79133
G0 F6000 X89.12 Y112.03
G1 F1800 X84.18 Y107.09 E57.88208
G0 F6000 X84.18 Y107.66
G1 F1800 X89.12 Y112.60 E57.97283
G0 F6000 X89.12 Y113.16
G1 F1800 X84.18 Y108.22 E58.06359
G0 F6000 X84.18 Y108.79
G1 F1800 X89.12 Y113.73 E58.15435
G0 F6000 X89.12 Y114.29
G1 F1800 X84.18 Y109.35 E58.24509
G0 F6000 X84.18 Y109.92
G1 F1800 X89.12 Y114.86 E58.33585
G0 F6000 X89.12 Y115.42
G1 F1800 X84.18 Y110.48 E58.42661
G0 F6000 X84.18 Y111.05
G1 F1800 X89.12 Y115.99 E58.51736
G0 F6000 X89.31 Y116.18
G1 F1800 X89.95 Y116.82 E58.52910
G0 F6000 X90.51 Y116.82
G1 F1800 X89.88 Y116.18 E58.54083
G0 F6000 X90.44 Y116.18
G1 F1800 X91.08 Y116.82 E58.55256
G0 F6000 X91.64 Y116.82
G1 F1800 X91.01 Y116.18 E58.56430
G0 F6000 X91.57 Y116.18
G1 F1800 X92.21 Y116.82 E58.57603
G0 F6000 X92.78 Y116.82
G1 F1800 X92.14 Y116.18 E58.58777
G0 F6000 X92.70 Y116.18
G1 F1800 X93.34 Y116.82 E58.59951
G0 F6000 X93.91 Y116.82
G1 F1800 X93.27 Y116.18 E58.61125
G0 F6000 X93.83 Y116.18
G1 F1800 X94.47 Y116.82 E58.62298
G0 F6000 X95.04 Y116.82
G1 F1800 X94.40 Y116.18 E58.63472
G0 F6000 X94.97 Y116.18
G1 F1800 X95.61 Y116.82 E58.64646
G0 F6000 X96.17 Y116.82
G1 F1800 X95.53 Y116.18 E58.65819
G0 F6000 X96.10 Y116.18
G1 F1800 X96.74 Y116.82 E58.66993
G0 F6000 X97.30 Y116.82
G1 F1800 X96.66 Y116.18 E58.68167
G0 F6000 X97.23 Y116.18
G1 F1800 X97.87 Y116.82 E58.69341
G0 F6000 X98.43 Y116.82
G1 F1800 X97.79 Y116.18 E58.70515
G0 F6000 X98.36 Y116.18
G1 F1800 X99.00 Y116.82 E58.71689
G0 F6000 X99.56 Y116.82
G1 F1800 X98.93 Y116.18 E58.72862
G0 F6000 X99.49 Y116.18
G1 F1800 X100.13 Y116.82 E58.74035
G0 F6000 X100.70 Y116.82
G1 F1800 X100.06 Y116.18 E58.75209
G0 F6000 X100.62 Y116.18
G1 F1800 X101.26 Y116.82 E58.76382
G0 F6000 X101.83 Y116.82
G1 F1800 X101.19 Y116.18 E58.77556
G0 F6000 X101.75 Y116.18
G1 F1800 X102.39 Y116.82 E58.78730
G0 F6000 X102.96 Y116.82
G1 F1800 X102.32 Y116.18 E58.79904
G0 F6000 X102.89 Y116.18
G1 F1800 X103.53 Y116.82 E58.81078
G0 F6000 X104.09 Y116.82
G1 F1800 X103.45 Y116.18 E58.82253
G0 F6000 X104.02 Y116.18
G1 F1800 X104.66 Y116.82 E58.83427
G0 F6000 X105.22 Y116.82
G1 F1800 X104.58 Y116.18 E58.84601
G0 F6000 X105.15 Y116.18
G1 F1800 X105.79 Y116.82 E58.85776
G0 F6000 X106.35 Y116.82
G1 F1800 X105.71 Y116.18 E58.86950
G0 F6000 X106.28 Y116.18
G1 F1800 X106.92 Y116.82 E58.88124
G0 F6000 X107.48 Y116.82
G1 F1800 X106.84 Y116.18 E58.89299
G0 F6000 X107.41 Y116.18
G1 F1800 X108.05 Y116.82 E58.90473
G0 F6000 X108.62 Y116.82
G1 F1800 X107.98 Y116.18 E58.91647
G0 F6000 X108.54 Y116.18
G1 F1800 X109.18 Y116.82 E58.92821
G0 F6000 X109.75 Y116.82
G1 F1800 X109.11 Y116.18 E58.93996
G0 F6000 X109.67 Y116.18
G1 F1800 X110.31 Y116.82 E58.95170
G0 F6000 X110.88 Y116.82
G1 F1800 X110.24 Y116.18 E58.96344
G0 F6000 X110.81 Y116.18
G1 F1800 X111.44 Y116.82 E58.97518
G0 F6000 X112.01 Y116.82
G1 F1800 X111.37 Y116.18 E58.98692
G0 F6000 X111.94 Y116.18
G1 F1800 X112.58 Y116.82 E58.99866
G0 F6000 X113.14 Y116.82
G1 F1800 X112.50 Y116.18 E59.01041
G0 F6000 X113.07 Y116.18
G1 F1800 X113.71 Y116.82 E59.02215
G0 F6000 X114.27 Y116.82
G1 F1800 X113.63 Y116.18 E59.03389
G0 F6000 X114.20 Y116.18
G1 F1800 X114.84 Y116.82 E59.04564
G0 F6000 X115.40 Y116.82
G1 F1800 X114.77 Y116.18 E59.05738
G0 F6000 X115.33 Y116.18
G1 F1800 X115.97 Y116.82 E59.06912
G0 F6000 X116.54 Y116.82
G1 F1800 X115.88 Y116.16 E59.08119
G0 F6000 X115.88 Y115.60
G1 F1800 X117.10 Y116.82 E59.10364
G0 F6000 X117.67 Y116.82
G1 F1800 X115.88 Y115.03 E59.13649
G0 F6000 X115.88 Y114.47
G1 F1800 X118.23 Y116.82 E59.17973
G0 F6000 X118.80 Y116.82
G1 F1800 X115.88 Y113.90 E59.23337
G0 F6000 X115.88 Y113.33
G1 F1800 X119.36 Y116.82 E59.29740
G0 F6000 X119.93 Y116.82
G1 F1800 X115.88 Y112.77 E59.37183
G0 F6000 X115.88 Y112.20
G1 F1800 X120.50 Y116.82 E59.45664
G0 F6000 X120.82 Y116.58
G1 F1800 X115.88 Y111.64 E59.54743
G0 F6000 X115.88 Y111.07
G1 F1800 X120.82 Y116.01 E59.63822
G0 F6000 X120.82 Y115.45
G1 F1800 X115.88 Y110.50 E59.72901
G0 F6000 X115.88 Y109.94
G1 F1800 X120.82 Y114.88 E59.81979
G0 F6000 X120.82 Y114.31
G1 F1800 X115.88 Y109.37 E59.91059
G0 F6000 X115.88 Y108.81
G1 F1800 X120.82 Y113.75 E60.00137
G0 F6000 X120.82 Y113.18
G1 F1800 X115.88 Y108.24 E60.09216
G0 F6000 X115.88 Y107.68
G1 F1800 X120.82 Y112.62 E60.18295
G0 F6000 X120.82 Y112.05
G1 F1800 X115.88 Y107.11 E60.27374
G0 F6000 X115.88 Y106.55
G1 F1800 X120.82 Y111.49 E60.36452
G0 F6000 X120.82 Y110.92
G1 F1800 X115.88 Y105.98 E60.45532
G0 F6000 X115.88 Y105.41
G1 F1800 X120.82 Y110.36 E60.54610
G0 F6000 X120.82 Y109.79
G1 F1800 X115.88 Y104.85 E60.63689
G0 F6000 X115.88 Y104.28
G1 F1800 X120.82 Y109.22 E60.72767
G0 F6000 X120.82 Y108.66
G1 F1800 X115.88 Y103.72 E60.81846
G0 F6000 X115.88 Y103.15
G1 F1800 X120.82 Y108.09 E60.90924
G0 F6000 X120.82 Y107.53
G1 F1800 X115.88 Y102.58 E61.00003
G0 F6000 X115.88 Y102.02
G1 F1800 X120.82 Y106.96 E61.09082
G0 F6000 X120.82 Y106.39
G1 F1800 X115.88 Y101.45 E61.18161
G0 F6000 X115.88 Y100.89
G1 F1800 X120.82 Y105.83 E61.27239
G0 F6000 X120.82 Y105.26
G1 F1800 X115.88 Y100.32 E61.36318
G0 F6000 X115.88 Y99.76
G1 F1800 X120.82 Y104.70 E61.45397
G0 F6000 X120.82 Y104.13
G1 F1800 X115.88 Y99.19 E61.54475
G0 F6000 X115.88 Y98.62
G1 F1800 X120.82 Y103.57 E61.63555
G0 F6000 X120.82 Y103.00
G1 F1800 X115.88 Y98.06 E61.72633
G0 F6000 X115.88 Y97.49
G1 F1800 X120.82 Y102.44 E61.81712
G0 F6000 X120.82 Y101.87
G1 F1800 X115.88 Y96.93 E61.90791
G0 F6000 X115.88 Y96.36
G1 F1800 X120.82 Y101.30 E61.99870
G0 F6000 X120.82 Y100.74
G1 F1800 X115.88 Y95.80 E62.08948
G0 F6000 X115.88 Y95.23
G1 F1800 X120.82 Y100.17 E62.18027
G0 F6000 X120.82 Y99.61
G1 F1800 X115.88 Y94.67 E62.27105
G0 F6000 X115.88 Y94.10
G1 F1800 X120.82 Y99.04 E62.36184
G0 F6000 X120.82 Y98.47
G1 F1800 X115.88 Y93.53 E62.45262
G0 F6000 X115.88 Y92.97
G1 F1800 X120.82 Y97.91 E62.54342
G0 F6000 X120.82 Y97.34
G1 F1800 X115.88 Y92.40 E62.63420
G0 F6000 X115.88 Y91.84
G1 F1800 X120.82 Y96.78 E62.72499
G0 F6000 X120.82 Y96.21
G1 F1800 X115.88 Y91.27 E62.81578
G0 F6000 X115.88 Y90.71
G1 F1800 X120.82 Y95.65 E62.90657
G0 F6000 X120.82 Y95.08
G1 F1800 X115.88 Y90.14 E62.99735
G0 F6000 X115.88 Y89.57
G1 F1800 X120.82 Y94.52 E63.08814
G0 F6000 X115.74 Y116.04
G0 X89.38 Y116.82
G1 F1800 X84.18 Y111.62 E63.18372
G0 F6000 X84.18 Y112.18
G1 F1800 X88.82 Y116.82 E63.26889
G0 F6000 X88.25 Y116.82
G1 F1800 X84.18 Y112.75 E63.34367
G0 F6000 X84.18 Y113.31
G1 F1800 X87.69 Y116.82 E63.40806
G0 F6000 X87.12 Y116.82
G1 F1800 X84.18 Y113.88 E63.46205
G0 F6000 X84.18 Y114.44
G1 F1800 X86.55 Y116.82 E63.50565
G0 F6000 X85.99 Y116.82
G1 F1800 X84.18 Y115.01 E63.53886
G0 F6000 X84.18 Y115.58
G1 F1800 X85.42 Y116.82 E63.56167
G0 F6000 X84.86 Y116.82
G1 F1800 X84.18 Y116.14 E63.57409
G0 F6000 X84.18 Y116.71
G1 F1800 X84.29 Y116.82 E63.57613
G1 F1800 E56.07613
G1 Z0.57
G0 F6000 X124.64 Y110.52
;TYPE:SUPPORT
G1 Z0.50
G1 F1800 E63.57613
G1 X124.64 Y94.48 E63.78452
G0 F6000 X125.97 Y94.48
G1 F1800 X125.97 Y110.52 E63.99292
G0 F6000 X127.30 Y110.52
G1 F1800 X127.30 Y103.88 E64.07917
G0 F6000 X128.63 Y104.28
G1 F1800 X128.63 Y110.52 E64.16031
G0 F6000 X129.97 Y110.45
G1 F1800 X129.97 Y103.34 E64.25270
G0 F6000 X130.12 Y103.49
G0 X130.49 Y103.05
G0 X130.49 Y101.75
G0 X130.12 Y101.31
G0 X129.97 Y101.46
G1 F1800 X129.97 Y94.48 E64.34343
G0 F6000 X128.63 Y94.48
G1 F1800 X128.63 Y100.68 E64.42404
G0 F6000 X127.30 Y100.92
G1 F1800 X127.30 Y94.48 E64.50771
G0 F6000 X127.30 Y94.70
G0 X131.23 Y95.01
G0 X131.30 Y94.80
G1 F1800 X131.30 Y110.00 E64.70520
G0 F6000 X132.63 Y109.35
G1 F1800 X132.63 Y95.45 E64.88590
G0 F6000 X132.53 Y95.64
G0 X133.81 Y96.52
G0 X133.97 Y96.37
G1 F1800 X133.97 Y108.52 E65.04379
G0 F6000 X133.97 Y108.30
G0 X135.12 Y106.77
G0 X135.30 Y106.90
G1 F1800 X135.30 Y97.70 E65.16331
G1 F1800 E57.66331
G1 Z0.57
G0 F6000 X80.65 Y94.48
G1 Z0.50
G1 F1800 E65.16331
G1 X80.65 Y110.52 E65.37170
G0 F6000 X79.31 Y110.52
G1 F1800 X79.31 Y94.48 E65.58010
G0 F6000 X77.98 Y94.48
G1 F1800 X77.98 Y101.48 E65.67101
G0 F6000 X78.14 Y101.32
G0 X77.87 Y100.63
G0 X77.38 Y100.36
G0 X76.64 Y100.47
G0 X76.65 Y100.69
G1 F1800 X76.65 Y94.48 E65.75175
G0 F6000 X75.31 Y94.48
G1 F1800 X75.31 Y100.91 E65.83533
G0 F6000 X75.22 Y100.72
G0 X74.42 Y101.75
G0 X74.62 Y103.45
G0 X75.22 Y104.08
G0 X75.31 Y103.89
G1 F1800 X75.31 Y110.35 E65.91931
G0 F6000 X76.65 Y110.52
G1 F1800 X76.65 Y104.28 E66.00041
G0 F6000 X76.59 Y104.49
G0 X77.87 Y104.17
G0 X78.14 Y103.48
G0 X77.98 Y103.32
G1 F1800 X77.98 Y110.52 E66.09392
G0 F6000 X77.98 Y110.30
G0 X74.05 Y109.79
G0 X73.98 Y110.00
G1 F1800 X73.98 Y94.80 E66.29128
G0 F6000 X72.65 Y95.45
G1 F1800 X72.65 Y109.34 E66.47174
G0 F6000 X72.80 Y109.19
G0 X71.41 Y108.38
G0 X71.31 Y108.58
G1 F1800 X71.31 Y96.22 E66.63224
G0 F6000 X69.98 Y96.89
G1 F1800 X69.98 Y107.91 E66.77543
G0 F6000 X70.15 Y107.75
G0 X70.08 Y106.75
G0 X68.80 Y104.79
G0 X68.65 Y104.95
G1 F1800 X68.65 Y99.85 E66.84158
;LAYER:1
M106 S40
G1 F1800 E59.34158
G1 Z0.57
G0 F6000 X84.10 Y88.10 Z0.60
;TYPE:WALL-INNER
G1 Z0.60
G1 F1800 E66.84158
G1 F1920 X120.90 Y88.10 E67.08064
G1 X120.90 Y116.90 E67.26773
G1 X84.10 Y116.90 E67.50678
G1 X84.10 Y88.10 E67.69386
G0 F6000 X89.20 Y88.90
G1 F1920 X89.20 Y116.10 E67.87055
G1 X115.80 Y116.10 E68.04334
G1 X115.80 Y88.90 E68.22003
G1 X89.20 Y88.90 E68.39282
G0 F6000 X89.60 Y89.30
;TYPE:WALL-OUTER
G1 F1920 X89.60 Y115.70 E68.56431
G1 X115.40 Y115.70 E68.73191
G1 X115.40 Y89.30 E68.90340
G1 X89.60 Y89.30 E69.07100
G0 F6000 X89.30 Y89.30
G0 X84.00 Y87.91
G0 X83.70 Y87.70
G1 F1920 X121.30 Y87.70 E69.31525
G1 X121.30 Y117.30 E69.50754
G1 X83.70 Y117.30 E69.75179
G1 X83.70 Y87.70 E69.94406
G0 F6000 X84.18 Y88.64
;TYPE:FILL
G1 F1920 X84.64 Y88.18 E69.94824
G0 F6000 X85.20 Y88.18
G1 F1920 X84.18 Y89.20 E69.95762
G0 F6000 X84.18 Y89.77
G1 F1920 X85.77 Y88.18 E69.97220
G0 F6000 X86.33 Y88.18
G1 F1920 X84.18 Y90.33 E69.99197
G0 F6000 X84.18 Y90.90
G1 F1920 X86.90 Y88.18 E70.01694
G0 F6000 X87.46 Y88.18
G1 F1920 X84.18 Y91.46 E70.04710
G0 F6000 X84.18 Y92.03
G1 F1920 X88.03 Y88.18 E70.08246
G0 F6000 X88.60 Y88.18
G1 F1920 X84.18 Y92.59 E70.12302
G0 F6000 X84.18 Y93.16
G1 F1920 X89.16 Y88.18 E70.16878
G0 F6000 X89.73 Y88.18
G1 F1920 X84.18 Y93.73 E70.21974
G0 F6000 X84.18 Y94.29
G1 F1920 X89.12 Y89.35 E70.26511
G0 F6000 X89.12 Y89.92
G1 F1920 X84.18 Y94.86 E70.31048
G0 F6000 X84.18 Y95.42
G1 F1920 X89.12 Y90.48 E70.35586
G0 F6000 X89.12 Y91.05
G1 F1920 X84.18 Y95.99 E70.40124
G0 F6000 X84.18 Y96.56
G1 F1920 X89.12 Y91.62 E70.44661
G0 F6000 X89.12 Y92.18
G1 F1920 X84.18 Y97.12 E70.49199
G0 F6000 X84.18 Y97.69
G1 F1920 X89.12 Y92.75 E70.53736
G0 F6000 X89.12 Y93.31
G1 F1920 X84.18 Y98.25 E70.58274
G0 F6000 X84.18 Y98.82
G1 F1920 X89.12 Y93.88 E70.62811
G0 F6000 X89.12 Y94.44
G1 F1920 X84.18 Y99.38 E70.67349
G0 F6000 X84.18 Y99.95
G1 F1920 X89.12 Y95.01 E70.71886
G0 F6000 X89.12 Y95.58
G1 F1920 X84.18 Y100.52 E70.76423
G0 F6000 X84.18 Y101.08
G1 F1920 X89.12 Y96.14 E70.80961
G0 F6000 X89.12 Y96.71
G1 F1920 X84.18 Y101.65 E70.85498
G0 F6000 X84.18 Y102.21
G1 F1920 X89.12 Y97.27 E70.90036
G0 F6000 X89.12 Y97.84
G1 F1920 X84.18 Y102.78 E70.94573
G0 F6000 X84.18 Y103.34
G1 F1920 X89.12 Y98.40 E70.99110
G0 F6000 X89.12 Y98.97
G1 F1920 X84.18 Y103.91 E71.03648
G0 F6000 X84.18 Y104.47
G1 F1920 X89.12 Y99.53 E71.08186
G0 F6000 X89.12 Y100.10
G1 F1920 X84.18 Y105.04 E71.12723
G0 F6000 X84.18 Y105.61
G1 F1920 X89.12 Y100.67 E71.17261
G0 F6000 X89.12 Y101.23
G1 F1920 X84.18 Y106.17 E71.21798
G0 F6000 X84.18 Y106.74
G1 F1920 X89.12 Y101.80 E71.26336
G0 F6000 X89.12 Y102.36
G1 F1920 X84.18 Y107.30 E71.30873
G0 F6000 X84.18 Y107.87
G1 F1920 X89.12 Y102.93 E71.35411
G0 F6000 X89.12 Y103.50
G1 F1920 X84.18 Y108.43 E71.39948
G0 F6000 X84.18 Y109.00
G1 F1920 X89.12 Y104.06 E71.44486
G0 F6000 X89.12 Y104.63
G1 F1920 X84.18 Y109.57 E71.49023
G0 F6000 X84.18 Y110.13
G1 F1920 X89.12 Y105.19 E71.53561
G0 F6000 X89.12 Y105.76
G1 F1920 X84.18 Y110.70 E71.58098
G0 F6000 X84.18 Y111.26
G1 F1920 X89.12 Y106.32 E71.62636
G0 F6000 X89.12 Y106.89
G1 F1920 X84.18 Y111.83 E71.67173
G0 F6000 X84.18 Y112.39
G1 F1920 X89.12 Y107.45 E71.71710
G0 F6000 X89.12 Y108.02
G1 F1920 X84.18 Y112.96 E71.76248
G0 F6000 X84.18 Y113.53
G1 F1920 X89.12 Y108.59 E71.80785
G0 F6000 X89.12 Y109.15
G1 F1920 X84.18 Y114.09 E71.85323
G0 F6000 X84.18 Y114.66
G1 F1920 X89.12 Y109.72 E71.89860
G0 F6000 X89.12 Y110.28
G1 F1920 X84.18 Y115.22 E71.94398
G0 F6000 X84.18 Y115.79
G1 F1920 X89.12 Y110.85 E71.98935
G0 F6000 X89.12 Y111.42
G1 F1920 X84.18 Y116.35 E72.03473
G0 F6000 X84.28 Y116.82
G1 F1920 X89.12 Y111.98 E72.07917
G0 F6000 X89.12 Y112.55
G1 F1920 X84.85 Y116.82 E72.11842
G0 F6000 X85.41 Y116.82
G1 F1920 X89.12 Y113.11 E72.15248
G0 F6000 X89.12 Y113.68
G1 F1920 X85.98 Y116.82 E72.18133
G0 F6000 X86.54 Y116.82
G1 F1920 X89.12 Y114.24 E72.20499
G0 F6000 X89.12 Y114.81
G1 F1920 X87.11 Y116.82 E72.22345
G0 F6000 X87.68 Y116.82
G1 F1920 X89.12 Y115.38 E72.23671
G0 F6000 X89.12 Y115.94
G1 F1920 X88.24 Y116.82 E72.24478
G0 F6000 X88.81 Y116.82
G1 F1920 X89.45 Y116.18 E72.25066
G0 F6000 X90.01 Y116.18
G1 F1920 X89.37 Y116.82 E72.25653
G0 F6000 X89.94 Y116.82
G1 F1920 X90.58 Y116.18 E72.26240
G0 F6000 X91.14 Y116.18
G1 F1920 X90.50 Y116.82 E72.26828
G0 F6000 X91.07 Y116.82
G1 F1920 X91.71 Y116.18 E72.27415
G0 F6000 X92.28 Y116.18
G1 F1920 X91.64 Y116.82 E72.28003
G0 F6000 X92.20 Y116.82
G1 F1920 X92.84 Y116.18 E72.28590
G0 F6000 X93.41 Y116.18
G1 F1920 X92.77 Y116.82 E72.29178
G0 F6000 X93.33 Y116.82
G1 F1920 X93.97 Y116.18 E72.29765
G0 F6000 X94.54 Y116.18
G1 F1920 X93.90 Y116.82 E72.30353
G0 F6000 X94.46 Y116.82
G1 F1920 X95.10 Y116.18 E72.30940
G0 F6000 X95.67 Y116.18
G1 F1920 X95.03 Y116.82 E72.31528
G0 F6000 X95.59 Y116.82
G1 F1920 X96.23 Y116.18 E72.32115
G0 F6000 X96.80 Y116.18
G1 F1920 X96.16 Y116.82 E72.32703
G0 F6000 X96.73 Y116.82
G1 F1920 X97.37 Y116.18 E72.33290
G0 F6000 X97.93 Y116.18
G1 F1920 X97.29 Y116.82 E72.33878
G0 F6000 X97.86 Y116.82
G1 F1920 X98.50 Y116.18 E72.34465
G0 F6000 X99.06 Y116.18
G1 F1920 X98.42 Y116.82 E72.35053
G0 F6000 X98.99 Y116.82
G1 F1920 X99.63 Y116.18 E72.35640
G0 F6000 X100.19 Y116.18
G1 F1920 X99.56 Y116.82 E72.36228
G0 F6000 X100.12 Y116.82
G1 F1920 X100.76 Y116.18 E72.36815
G0 F6000 X101.33 Y116.18
G1 F1920 X100.69 Y116.82 E72.37402
G0 F6000 X101.25 Y116.82
G1 F1920 X101.89 Y116.18 E72.37990
G0 F6000 X102.46 Y116.18
G1 F1920 X101.82 Y116.82 E72.38577
G0 F6000 X102.38 Y116.82
G1 F1920 X103.02 Y116.18 E72.39165
G0 F6000 X103.59 Y116.18
G1 F1920 X102.95 Y116.82 E72.39753
G0 F6000 X103.51 Y116.82
G1 F1920 X104.16 Y116.18 E72.40341
G0 F6000 X104.72 Y116.18
G1 F1920 X104.08 Y116.82 E72.40930
G0 F6000 X104.65 Y116.82
G1 F1920 X105.29 Y116.18 E72.41517
G0 F6000 X105.85 Y116.18
G1 F1920 X105.21 Y116.82 E72.42106
G0 F6000 X105.78 Y116.82
G1 F1920 X106.42 Y116.18 E72.42694
G0 F6000 X106.98 Y116.18
G1 F1920 X106.34 Y116.82 E72.43282
G0 F6000 X106.91 Y116.82
G1 F1920 X107.55 Y116.18 E72.43871
G0 F6000 X108.11 Y116.18
G1 F1920 X107.47 Y116.82 E72.44459
G0 F6000 X108.04 Y116.82
G1 F1920 X108.68 Y116.18 E72.45047
G0 F6000 X109.25 Y116.18
G1 F1920 X108.61 Y116.82 E72.45636
G0 F6000 X109.17 Y116.82
G1 F1920 X109.81 Y116.18 E72.46224
G0 F6000 X110.38 Y116.18
G1 F1920 X109.74 Y116.82 E72.46812
G0 F6000 X110.30 Y116.82
G1 F1920 X110.94 Y116.18 E72.47400
G0 F6000 X111.51 Y116.18
G1 F1920 X110.87 Y116.82 E72.47988
G0 F6000 X111.43 Y116.82
G1 F1920 X112.08 Y116.18 E72.48577
G0 F6000 X112.64 Y116.18
G1 F1920 X112.00 Y116.82 E72.49165
G0 F6000 X112.56 Y116.82
G1 F1920 X113.21 Y116.18 E72.49753
G0 F6000 X113.77 Y116.18
G1 F1920 X113.13 Y116.82 E72.50342
G0 F6000 X113.70 Y116.82
G1 F1920 X114.34 Y116.18 E72.50929
G0 F6000 X114.90 Y116.18
G1 F1920 X114.26 Y116.82 E72.51518
G0 F6000 X114.83 Y116.82
G1 F1920 X115.47 Y116.18 E72.52106
G0 F6000 X115.88 Y115.77
G1 F1920 X120.82 Y110.83 E72.56646
G0 F6000 X120.82 Y111.39
G1 F1920 X115.39 Y116.82 E72.61630
G0 F6000 X115.96 Y116.82
G1 F1920 X120.82 Y111.96 E72.66096
G0 F6000 X120.82 Y112.52
G1 F1920 X116.53 Y116.82 E72.70041
G0 F6000 X117.09 Y116.82
G1 F1920 X120.82 Y113.09 E72.73467
G0 F6000 X120.82 Y113.66
G1 F1920 X117.66 Y116.82 E72.76374
G0 F6000 X118.22 Y116.82
G1 F1920 X120.82 Y114.22 E72.78760
G0 F6000 X120.82 Y114.79
G1 F1920 X118.79 Y116.82 E72.80627
G0 F6000 X119.35 Y116.82
G1 F1920 X120.82 Y115.35 E72.81974
G0 F6000 X120.82 Y115.92
G1 F1920 X119.92 Y116.82 E72.82802
G0 F6000 X120.48 Y116.82
G1 F1920 X120.82 Y116.48 E72.83110
G0 F6000 X115.88 Y115.20
G1 F1920 X120.82 Y110.26 E72.87649
G0 F6000 X120.82 Y109.70
G1 F1920 X115.88 Y114.64 E72.92188
G0 F6000 X115.88 Y114.07
G1 F1920 X120.82 Y109.13 E72.96727
G0 F6000 X120.82 Y108.56
G1 F1920 X115.88 Y113.50 E73.01266
G0 F6000 X115.88 Y112.94
G1 F1920 X120.82 Y108.00 E73.05805
G0 F6000 X120.82 Y107.43
G1 F1920 X115.88 Y112.37 E73.10344
G0 F6000 X115.88 Y111.81
G1 F1920 X120.82 Y106.87 E73.14884
G0 F6000 X120.82 Y106.30
G1 F1920 X115.88 Y111.24 E73.19422
G0 F6000 X115.88 Y110.68
G1 F1920 X120.82 Y105.74 E73.23962
G0 F6000 X120.82 Y105.17
G1 F1920 X115.88 Y110.11 E73.28501
G0 F6000 X115.88 Y109.55
G1 F1920 X120.82 Y104.61 E73.33040
G0 F6000 X120.82 Y104.04
G1 F1920 X115.88 Y108.98 E73.37579
G0 F6000 X115.88 Y108.41
G1 F1920 X120.82 Y103.47 E73.42118
G0 F6000 X120.82 Y102.91
G1 F1920 X115.88 Y107.85 E73.46657
G0 F6000 X115.88 Y107.28
G1 F1920 X120.82 Y102.34 E73.51196
G0 F6000 X120.82 Y101.78
G1 F1920 X115.88 Y106.72 E73.55735
G0 F6000 X115.88 Y106.15
G1 F1920 X120.82 Y101.21 E73.60274
G0 F6000 X120.82 Y100.64
G1 F1920 X115.88 Y105.58 E73.64813
G0 F6000 X115.88 Y105.02
G1 F1920 X120.82 Y100.08 E73.69352
G0 F6000 X120.82 Y99.51
G1 F1920 X115.88 Y104.45 E73.73891
G0 F6000 X115.88 Y103.89
G1 F1920 X120.82 Y98.95 E73.78430
G0 F6000 X120.82 Y98.38
G1 F1920 X115.88 Y103.32 E73.82969
G0 F6000 X115.88 Y102.76
G1 F1920 X120.82 Y97.82 E73.87508
G0 F6000 X120.82 Y97.25
G1 F1920 X115.88 Y102.19 E73.92047
G0 F6000 X115.88 Y101.63
G1 F1920 X120.82 Y96.69 E73.96586
G0 F6000 X120.82 Y96.12
G1 F1920 X115.88 Y101.06 E74.01126
G0 F6000 X115.88 Y100.49
G1 F1920 X120.82 Y95.55 E74.05664
G0 F6000 X120.82 Y94.99
G1 F1920 X115.88 Y99.93 E74.10204
G0 F6000 X115.88 Y99.36
G1 F1920 X120.82 Y94.42 E74.14743
G0 F6000 X120.82 Y93.86
G1 F1920 X115.88 Y98.80 E74.19282
G0 F6000 X115.88 Y98.23
G1 F1920 X120.82 Y93.29 E74.23821
G0 F6000 X120.82 Y92.72
G1 F1920 X115.88 Y97.67 E74.28360
G0 F6000 X115.88 Y97.10
G1 F1920 X120.82 Y92.16 E74.32899
G0 F6000 X120.82 Y91.59
G1 F1920 X115.88 Y96.53 E74.37437
G0 F6000 X115.88 Y95.97
G1 F1920 X120.82 Y91.03 E74.41977
G0 F6000 X120.82 Y90.46
G1 F1920 X115.88 Y95.40 E74.46516
G0 F6000 X115.88 Y94.84
G1 F1920 X120.82 Y89.90 E74.51055
G0 F6000 X120.82 Y89.33
G1 F1920 X115.88 Y94.27 E74.55594
G0 F6000 X115.88 Y93.71
G1 F1920 X120.82 Y88.77 E74.60133
G0 F6000 X120.82 Y88.20
G1 F1920 X115.88 Y93.14 E74.64672
G0 F6000 X115.88 Y92.58
G1 F1920 X120.27 Y88.18 E74.68710
G0 F6000 X119.71 Y88.18
G1 F1920 X115.88 Y92.01 E74.72227
G0 F6000 X115.88 Y91.44
G1 F1920 X119.14 Y88.18 E74.75225
G0 F6000 X118.58 Y88.18
G1 F1920 X115.88 Y90.88 E74.77704
G0 F6000 X115.88 Y90.31
G1 F1920 X118.01 Y88.18 E74.79663
G0 F6000 X117.45 Y88.18
G1 F1920 X115.88 Y89.75 E74.81102
G0 F6000 X115.88 Y89.18
G1 F1920 X116.88 Y88.18 E74.82021
G0 F6000 X116.31 Y88.18
G1 F1920 X115.67 Y88.82 E74.82609
G0 F6000 X115.11 Y88.82
G1 F1920 X115.75 Y88.18 E74.83197
G0 F6000 X115.18 Y88.18
G1 F1920 X114.54 Y88.82 E74.83785
G0 F6000 X113.98 Y88.82
G1 F1920 X114.62 Y88.18 E74.84373
G0 F6000 X114.05 Y88.18
G1 F1920 X113.41 Y88.82 E74.84961
G0 F6000 X112.85 Y88.82
G1 F1920 X113.49 Y88.18 E74.85549
G0 F6000 X112.92 Y88.18
G1 F1920 X112.28 Y88.82 E74.86137
G0 F6000 X111.72 Y88.82
G1 F1920 X112.36 Y88.18 E74.86725
G0 F6000 X111.79 Y88.18
G1 F1920 X111.15 Y88.82 E74.87313
G0 F6000 X110.58 Y88.82
G1 F1920 X111.22 Y88.18 E74.87901
G0 F6000 X110.66 Y88.18
G1 F1920 X110.02 Y88.82 E74.88488
G0 F6000 X109.45 Y88.82
G1 F1920 X110.09 Y88.18 E74.89076
G0 F6000 X109.53 Y88.18
G1 F1920 X108.89 Y88.82 E74.89664
G0 F6000 X108.32 Y88.82
G1 F1920 X108.96 Y88.18 E74.90252
G0 F6000 X108.39 Y88.18
G1 F1920 X107.75 Y88.82 E74.90840
G0 F6000 X107.19 Y88.82
G1 F1920 X107.83 Y88.18 E74.91428
G0 F6000 X107.26 Y88.18
G1 F1920 X106.62 Y88.82 E74.92016
G0 F6000 X106.06 Y88.82
G1 F1920 X106.70 Y88.18 E74.92604
G0 F6000 X106.13 Y88.18
G1 F1920 X105.49 Y88.82 E74.93192
G0 F6000 X104.93 Y88.82
G1 F1920 X105.57 Y88.18 E74.93780
G0 F6000 X105.00 Y88.18
G1 F1920 X104.36 Y88.82 E74.94368
G0 F6000 X103.80 Y88.82
G1 F1920 X104.44 Y88.18 E74.94956
G0 F6000 X103.87 Y88.18
G1 F1920 X103.23 Y88.82 E74.95544
G0 F6000 X102.66 Y88.82
G1 F1920 X103.30 Y88.18 E74.96132
G0 F6000 X102.74 Y88.18
G1 F1920 X102.10 Y88.82 E74.96720
G0 F6000 X101.53 Y88.82
G1 F1920 X102.17 Y88.18 E74.97308
G0 F6000 X101.61 Y88.18
G1 F1920 X100.97 Y88.82 E74.97896
G0 F6000 X100.40 Y88.82
G1 F1920 X101.04 Y88.18 E74.98484
G0 F6000 X100.47 Y88.18
G1 F1920 X99.83 Y88.82 E74.99072
G0 F6000 X99.27 Y88.82
G1 F1920 X99.91 Y88.18 E74.99659
G0 F6000 X99.34 Y88.18
G1 F1920 X98.70 Y88.82 E75.00247
G0 F6000 X98.14 Y88.82
G1 F1920 X98.78 Y88.18 E75.00835
G0 F6000 X98.21 Y88.18
G1 F1920 X97.57 Y88.82 E75.01423
G0 F6000 X97.01 Y88.82
G1 F1920 X97.65 Y88.18 E75.02011
G0 F6000 X97.08 Y88.18
G1 F1920 X96.44 Y88.82 E75.02599
G0 F6000 X95.88 Y88.82
G1 F1920 X96.52 Y88.18 E75.03187
G0 F6000 X95.95 Y88.18
G1 F1920 X95.31 Y88.82 E75.03775
G0 F6000 X94.74 Y88.82
G1 F1920 X95.38 Y88.18 E75.04363
G0 F6000 X94.82 Y88.18
G1 F1920 X94.18 Y88.82 E75.04951
G0 F6000 X93.61 Y88.82
G1 F1920 X94.25 Y88.18 E75.05539
G0 F6000 X93.69 Y88.18
G1 F1920 X93.05 Y88.82 E75.06127
G0 F6000 X92.48 Y88.82
G1 F1920 X93.12 Y88.18 E75.06715
G0 F6000 X92.56 Y88.18
G1 F1920 X91.92 Y88.82 E75.07303
G0 F6000 X91.35 Y88.82
G1 F1920 X91.99 Y88.18 E75.07891
G0 F6000 X91.42 Y88.18
G1 F1920 X90.78 Y88.82 E75.08479
G0 F6000 X90.22 Y88.82
G1 F1920 X90.86 Y88.18 E75.09066
G0 F6000 X90.29 Y88.18
G1 F1920 X89.65 Y88.82 E75.09654
G1 F1800 E67.59654
G1 Z0.68
G0 F6000 X80.65 Y94.48
;TYPE:SUPPORT
G1 Z0.60
G1 F1800 E75.09654
G1 F1920 X80.65 Y110.52 E75.20074
G0 F6000 X79.31 Y110.52
G1 F1920 X79.31 Y94.48 E75.30494
G0 F6000 X77.98 Y94.48
G1 F1920 X77.98 Y101.48 E75.35039
G0 F6000 X78.14 Y101.32
G0 X77.87 Y100.63
G0 X77.38 Y100.36
G0 X76.64 Y100.47
G0 X76.65 Y100.69
G1 F1920 X76.65 Y94.48 E75.39076
G0 F6000 X75.31 Y94.48
G1 F1920 X75.31 Y100.91 E75.43255
G0 F6000 X75.22 Y100.72
G0 X74.42 Y101.75
G0 X74.62 Y103.45
G0 X75.22 Y104.08
G0 X75.31 Y103.89
G1 F1920 X75.31 Y110.35 E75.47454
G0 F6000 X76.65 Y110.52
G1 F1920 X76.65 Y104.28 E75.51509
G0 F6000 X76.59 Y104.49
G0 X77.87 Y104.17
G0 X78.14 Y103.48
G0 X77.98 Y103.32
G1 F1920 X77.98 Y110.52 E75.56185
G0 F6000 X77.98 Y110.30
G0 X74.05 Y109.79
G0 X73.98 Y110.00
G1 F1920 X73.98 Y94.80 E75.66053
G0 F6000 X72.65 Y95.45
G1 F1920 X72.65 Y109.34 E75.75076
G0 F6000 X72.80 Y109.19
G0 X71.41 Y108.38
G0 X71.31 Y108.58
G1 F1920 X71.31 Y96.22 E75.83101
G0 F6000 X69.98 Y96.89
G1 F1920 X69.98 Y107.91 E75.90260
G0 F6000 X70.15 Y107.75
G0 X70.08 Y106.75
G0 X68.80 Y104.79
G0 X68.65 Y104.95
G1 F1920 X68.65 Y99.85 E75.93568
G1 F1800 E68.43568
G1 Z0.68
G0 F6000 X124.64 Y94.48
G1 Z0.60
G1 F1800 E75.93568
G1 F1920 X124.64 Y110.52 E76.03988
G0 F6000 X125.97 Y110.52
G1 F1920 X125.97 Y94.48 E76.14407
G0 F6000 X127.30 Y94.48
G1 F1920 X127.30 Y100.92 E76.18591
G0 F6000 X128.63 Y100.68
G1 F1920 X128.63 Y94.48 E76.22621
G0 F6000 X129.97 Y94.48
G1 F1920 X129.97 Y101.46 E76.27158
G0 F6000 X130.12 Y101.31
G0 X130.49 Y101.75
G0 X130.49 Y103.05
G0 X130.12 Y103.49
G0 X129.97 Y103.34
G1 F1920 X129.97 Y110.45 E76.31777
G0 F6000 X128.63 Y110.52
G1 F1920 X128.63 Y104.28 E76.35834
G0 F6000 X127.30 Y103.88
G1 F1920 X127.30 Y110.52 E76.40147
G0 F6000 X127.30 Y110.30
G0 X131.23 Y109.79
G0 X131.30 Y110.00
G1 F1920 X131.30 Y94.80 E76.50022
G0 F6000 X132.63 Y95.45
G1 F1920 X132.63 Y109.35 E76.59057
G0 F6000 X132.53 Y109.16
G0 X133.97 Y108.30
G0 X133.97 Y108.52
G1 F1920 X133.97 Y96.37 E76.66951
G0 F6000 X133.81 Y96.52
G0 X135.15 Y97.86
G0 X135.30 Y97.70
G1 F1920 X135.30 Y106.90 E76.72927
;LAYER:2
M106 S84
G1 F1800 E69.22927
G1 Z0.68
G0 F6000 X120.90 Y116.90 Z0.70
;TYPE:WALL-INNER
G1 Z0.70
G1 F1800 E76.72927
G1 F2100 X84.10 Y116.90 E76.96833
G1 X84.10 Y88.10 E77.15540
G1 X120.90 Y88.10 E77.39446
G1 X120.90 Y116.90 E77.58155
G0 F6000 X115.80 Y116.10
G1 F2100 X115.80 Y88.90 E77.75824
G1 X89.20 Y88.90 E77.93103
G1 X89.20 Y116.10 E78.10772
G1 X115.80 Y116.10 E78.28051
G0 F6000 X115.40 Y115.70
;TYPE:WALL-OUTER
G1 F2100 X115.40 Y89.30 E78.45201
G1 X89.60 Y89.30 E78.61960
G1 X89.60 Y115.70 E78.79109
G1 X115.40 Y115.70 E78.95869
G0 F6000 X115.40 Y116.00
G0 X121.00 Y117.09
G0 X121.30 Y117.30
G1 F2100 X83.70 Y117.30 E79.20294
G1 X83.70 Y87.70 E79.39521
G1 X121.30 Y87.70 E79.63947
G1 X121.30 Y117.30 E79.83175
G0 F6000 X120.82 Y116.58
;TYPE:FILL
G1 F2100 X115.88 Y111.64 E79.87714
G0 F6000 X115.88 Y112.20
G1 F2100 X120.50 Y116.82 E79.91955
G0 F6000 X119.93 Y116.82
G1 F2100 X115.88 Y112.77 E79.95677
G0 F6000 X115.88 Y113.33
G1 F2100 X119.36 Y116.82 E79.98878
G0 F6000 X118.80 Y116.82
G1 F2100 X115.88 Y113.90 E80.01560
G0 F6000 X115.88 Y114.47
G1 F2100 X118.23 Y116.82 E80.03722
G0 F6000 X117.67 Y116.82
G1 F2100 X115.88 Y115.03 E80.05365
G0 F6000 X115.88 Y115.60
G1 F2100 X117.10 Y116.82 E80.06487
G0 F6000 X116.54 Y116.82
G1 F2100 X115.88 Y116.16 E80.07091
G0 F6000 X115.33 Y116.18
G1 F2100 X115.97 Y116.82 E80.07678
G0 F6000 X115.40 Y116.82
G1 F2100 X114.77 Y116.18 E80.08265
G0 F6000 X114.20 Y116.18
G1 F2100 X114.84 Y116.82 E80.08852
G0 F6000 X114.27 Y116.82
G1 F2100 X113.63 Y116.18 E80.09439
G0 F6000 X113.07 Y116.18
G1 F2100 X113.71 Y116.82 E80.10026
G0 F6000 X113.14 Y116.82
G1 F2100 X112.50 Y116.18 E80.10614
G0 F6000 X111.94 Y116.18
G1 F2100 X112.58 Y116.82 E80.11201
G0 F6000 X112.01 Y116.82
G1 F2100 X111.37 Y116.18 E80.11788
G0 F6000 X110.81 Y116.18
G1 F2100 X111.44 Y116.82 E80.12375
G0 F6000 X110.88 Y116.82
G1 F2100 X110.24 Y116.18 E80.12962
G0 F6000 X109.67 Y116.18
G1 F2100 X110.31 Y116.82 E80.13549
G0 F6000 X109.75 Y116.82
G1 F2100 X109.11 Y116.18 E80.14136
G0 F6000 X108.54 Y116.18
G1 F2100 X109.18 Y116.82 E80.14723
G0 F6000 X108.62 Y116.82
G1 F2100 X107.98 Y116.18 E80.15310
G0 F6000 X107.41 Y116.18
G1 F2100 X108.05 Y116.82 E80.15897
G0 F6000 X107.48 Y116.82
G1 F2100 X106.84 Y116.18 E80.16485
G0 F6000 X106.28 Y116.18
G1 F2100 X106.92 Y116.82 E80.17072
G0 F6000 X106.35 Y116.82
G1 F2100 X105.71 Y116.18 E80.17659
G0 F6000 X105.15 Y116.18
G1 F2100 X105.79 Y116.82 E80.18246
G0 F6000 X105.22 Y116.82
G1 F2100 X104.58 Y116.18 E80.18833
G0 F6000 X104.02 Y116.18
G1 F2100 X104.66 Y116.82 E80.19420
G0 F6000 X104.09 Y116.82
G1 F2100 X103.45 Y116.18 E80.20008
G0 F6000 X102.89 Y116.18
G1 F2100 X103.53 Y116.82 E80.20595
G0 F6000 X102.96 Y116.82
G1 F2100 X102.32 Y116.18 E80.21182
G0 F6000 X101.75 Y116.18
G1 F2100 X102.39 Y116.82 E80.21769
G0 F6000 X101.83 Y116.82
G1 F2100 X101.19 Y116.18 E80.22356
G0 F6000 X100.62 Y116.18
G1 F2100 X101.26 Y116.82 E80.22942
G0 F6000 X100.70 Y116.82
G1 F2100 X100.06 Y116.18 E80.23529
G0 F6000 X99.49 Y116.18
G1 F2100 X100.13 Y116.82 E80.24116
G0 F6000 X99.56 Y116.82
G1 F2100 X98.93 Y116.18 E80.24702
G0 F6000 X98.36 Y116.18
G1 F2100 X99.00 Y116.82 E80.25289
G0 F6000 X98.43 Y116.82
G1 F2100 X97.79 Y116.18 E80.25876
G0 F6000 X97.23 Y116.18
G1 F2100 X97.87 Y116.82 E80.26463
G0 F6000 X97.30 Y116.82
G1 F2100 X96.66 Y116.18 E80.27050
G0 F6000 X96.10 Y116.18
G1 F2100 X96.74 Y116.82 E80.27637
G0 F6000 X96.17 Y116.82
G1 F2100 X95.53 Y116.18 E80.28224
G0 F6000 X94.97 Y116.18
G1 F2100 X95.61 Y116.82 E80.28811
G0 F6000 X95.04 Y116.82
G1 F2100 X94.40 Y116.18 E80.29398
G0 F6000 X93.83 Y116.18
G1 F2100 X94.47 Y116.82 E80.29984
G0 F6000 X93.91 Y116.82
G1 F2100 X93.27 Y116.18 E80.30571
G0 F6000 X92.70 Y116.18
G1 F2100 X93.34 Y116.82 E80.31158
G0 F6000 X92.78 Y116.82
G1 F2100 X92.14 Y116.18 E80.31745
G0 F6000 X91.57 Y116.18
G1 F2100 X92.21 Y116.82 E80.32332
G0 F6000 X91.64 Y116.82
G1 F2100 X91.01 Y116.18 E80.32919
G0 F6000 X90.44 Y116.18
G1 F2100 X91.08 Y116.82 E80.33505
G0 F6000 X90.51 Y116.82
G1 F2100 X89.88 Y116.18 E80.34092
G0 F6000 X89.31 Y116.18
G1 F2100 X89.95 Y116.82 E80.34679
G0 F6000 X89.38 Y116.82
G1 F2100 X84.18 Y111.62 E80.39457
G0 F6000 X84.18 Y111.05
G1 F2100 X89.12 Y115.99 E80.43995
G0 F6000 X89.12 Y115.42
G1 F2100 X84.18 Y110.48 E80.48533
G0 F6000 X84.18 Y109.92
G1 F2100 X89.12 Y114.86 E80.53071
G0 F6000 X89.12 Y114.29
G1 F2100 X84.18 Y109.35 E80.57608
G0 F6000 X84.18 Y108.79
G1 F2100 X89.12 Y113.73 E80.62146
G0 F6000 X89.12 Y113.16
G1 F2100 X84.18 Y108.22 E80.66684
G0 F6000 X84.18 Y107.66
G1 F2100 X89.12 Y112.60 E80.71221
G0 F6000 X89.12 Y112.03
G1 F2100 X84.18 Y107.09 E80.75759
G0 F6000 X84.18 Y106.53
G1 F2100 X89.12 Y111.47 E80.80297
G0 F6000 X89.12 Y110.90
G1 F2100 X84.18 Y105.96 E80.84835
G0 F6000 X84.18 Y105.39
G1 F2100 X89.12 Y110.33 E80.89373
G0 F6000 X89.12 Y109.77
G1 F2100 X84.18 Y104.83 E80.93910
G0 F6000 X84.18 Y104.26
G1 F2100 X89.12 Y109.20 E80.98448
G0 F6000 X89.12 Y108.64
G1 F2100 X84.18 Y103.70 E81.02986
G0 F6000 X84.18 Y103.13
G1 F2100 X89.12 Y108.07 E81.07524
G0 F6000 X89.12 Y107.50
G1 F2100 X84.18 Y102.56 E81.12062
G0 F6000 X84.18 Y102.00
G1 F2100 X89.12 Y106.94 E81.16600
G0 F6000 X89.12 Y106.37
G1 F2100 X84.18 Y101.43 E81.21138
G0 F6000 X84.18 Y100.87
G1 F2100 X89.12 Y105.81 E81.25676
G0 F6000 X89.12 Y105.24
G1 F2100 X84.18 Y100.30 E81.30213
G0 F6000 X84.18 Y99.74
G1 F2100 X89.12 Y104.68 E81.34751
G0 F6000 X89.12 Y104.11
G1 F2100 X84.18 Y99.17 E81.39289
G0 F6000 X84.18 Y98.61
G1 F2100 X89.12 Y103.55 E81.43826
G0 F6000 X89.12 Y102.98
G1 F2100 X84.18 Y98.04 E81.48364
G0 F6000 X84.18 Y97.47
G1 F2100 X89.12 Y102.41 E81.52902
G0 F6000 X89.12 Y101.85
G1 F2100 X84.18 Y96.91 E81.57440
G0 F6000 X84.18 Y96.34
G1 F2100 X89.12 Y101.28 E81.61978
G0 F6000 X89.12 Y100.72
G1 F2100 X84.18 Y95.78 E81.66515
G0 F6000 X84.18 Y95.21
G1 F2100 X89.12 Y100.15 E81.71053
G0 F6000 X89.12 Y99.59
G1 F2100 X84.18 Y94.65 E81.75591
G0 F6000 X84.18 Y94.08
G1 F2100 X89.12 Y99.02 E81.80129
G0 F6000 X89.12 Y98.45
G1 F2100 X84.18 Y93.51 E81.84667
G0 F6000 X84.18 Y92.95
G1 F2100 X89.12 Y97.89 E81.89205
G0 F6000 X89.12 Y97.32
G1 F2100 X84.18 Y92.38 E81.93743
G0 F6000 X84.18 Y91.82
G1 F2100 X89.12 Y96.76 E81.98281
G0 F6000 X89.12 Y96.19
G1 F2100 X84.18 Y91.25 E82.02818
G0 F6000 X84.18 Y90.69
G1 F2100 X89.12 Y95.63 E82.07356
G0 F6000 X89.12 Y95.06
G1 F2100 X84.18 Y90.12 E82.11894
G0 F6000 X84.18 Y89.56
G1 F2100 X89.12 Y94.49 E82.16431
G0 F6000 X89.12 Y93.93
G1 F2100 X84.18 Y88.99 E82.20969
G0 F6000 X84.18 Y88.42
G1 F2100 X89.12 Y93.36 E82.25507
G0 F6000 X89.12 Y92.80
G1 F2100 X84.50 Y88.18 E82.29748
G0 F6000 X85.07 Y88.18
G1 F2100 X89.12 Y92.23 E82.33471
G0 F6000 X89.12 Y91.67
G1 F2100 X85.63 Y88.18 E82.36673
G0 F6000 X86.20 Y88.18
G1 F2100 X89.12 Y91.10 E82.39356
G0 F6000 X89.12 Y90.53
G1 F2100 X86.77 Y88.18 E82.41519
G0 F6000 X87.33 Y88.18
G1 F2100 X89.12 Y89.97 E82.43162
G0 F6000 X89.12 Y89.40
G1 F2100 X87.90 Y88.18 E82.44286
G0 F6000 X88.46 Y88.18
G1 F2100 X89.12 Y88.84 E82.44890
G0 F6000 X89.67 Y88.82
G1 F2100 X89.03 Y88.18 E82.45477
G0 F6000 X89.59 Y88.18
G1 F2100 X90.23 Y88.82 E82.46064
G0 F6000 X90.80 Y88.82
G1 F2100 X90.16 Y88.18 E82.46651
G0 F6000 X90.73 Y88.18
G1 F2100 X91.36 Y88.82 E82.47238
G0 F6000 X91.93 Y88.82
G1 F2100 X91.29 Y88.18 E82.47826
G0 F6000 X91.86 Y88.18
G1 F2100 X92.50 Y88.82 E82.48413
G0 F6000 X93.06 Y88.82
G1 F2100 X92.42 Y88.18 E82.49000
G0 F6000 X92.99 Y88.18
G1 F2100 X93.63 Y88.82 E82.49587
G0 F6000 X94.19 Y88.82
G1 F2100 X93.55 Y88.18 E82.50174
G0 F6000 X94.12 Y88.18
G1 F2100 X94.76 Y88.82 E82.50761
G0 F6000 X95.33 Y88.82
G1 F2100 X94.69 Y88.18 E82.51349
G0 F6000 X95.25 Y88.18
G1 F2100 X95.89 Y88.82 E82.51936
G0 F6000 X96.46 Y88.82
G1 F2100 X95.82 Y88.18 E82.52523
G0 F6000 X96.38 Y88.18
G1 F2100 X97.02 Y88.82 E82.53110
G0 F6000 X97.59 Y88.82
G1 F2100 X96.95 Y88.18 E82.53697
G0 F6000 X97.51 Y88.18
G1 F2100 X98.15 Y88.82 E82.54284
G0 F6000 X98.72 Y88.82
G1 F2100 X98.08 Y88.18 E82.54872
G0 F6000 X98.64 Y88.18
G1 F2100 X99.28 Y88.82 E82.55459
G0 F6000 X99.85 Y88.82
G1 F2100 X99.21 Y88.18 E82.56046
G0 F6000 X99.78 Y88.18
G1 F2100 X100.42 Y88.82 E82.56633
G0 F6000 X100.98 Y88.82
G1 F2100 X100.34 Y88.18 E82.57220
G0 F6000 X100.91 Y88.18
G1 F2100 X101.55 Y88.82 E82.57807
G0 F6000 X102.11 Y88.82
G1 F2100 X101.47 Y88.18 E82.58394
G0 F6000 X102.04 Y88.18
G1 F2100 X102.68 Y88.82 E82.58981
G0 F6000 X103.24 Y88.82
G1 F2100 X102.61 Y88.18 E82.59568
G0 F6000 X103.17 Y88.18
G1 F2100 X103.81 Y88.82 E82.60155
G0 F6000 X104.38 Y88.82
G1 F2100 X103.74 Y88.18 E82.60743
G0 F6000 X104.30 Y88.18
G1 F2100 X104.94 Y88.82 E82.61330
G0 F6000 X105.51 Y88.82
G1 F2100 X104.87 Y88.18 E82.61917
G0 F6000 X105.43 Y88.18
G1 F2100 X106.07 Y88.82 E82.62504
G0 F6000 X106.64 Y88.82
G1 F2100 X106.00 Y88.18 E82.63091
G0 F6000 X106.56 Y88.18
G1 F2100 X107.20 Y88.82 E82.63678
G0 F6000 X107.77 Y88.82
G1 F2100 X107.13 Y88.18 E82.64266
G0 F6000 X107.70 Y88.18
G1 F2100 X108.33 Y88.82 E82.64853
G0 F6000 X108.90 Y88.82
G1 F2100 X108.26 Y88.18 E82.65440
G0 F6000 X108.83 Y88.18
G1 F2100 X109.47 Y88.82 E82.66028
G0 F6000 X110.03 Y88.82
G1 F2100 X109.39 Y88.18 E82.66615
G0 F6000 X109.96 Y88.18
G1 F2100 X110.60 Y88.82 E82.67202
G0 F6000 X111.16 Y88.82
G1 F2100 X110.53 Y88.18 E82.67789
G0 F6000 X111.09 Y88.18
G1 F2100 X111.73 Y88.82 E82.68376
G0 F6000 X112.30 Y88.82
G1 F2100 X111.66 Y88.18 E82.68963
G0 F6000 X112.22 Y88.18
G1 F2100 X112.86 Y88.82 E82.69550
G0 F6000 X113.43 Y88.82
G1 F2100 X112.79 Y88.18 E82.70137
G0 F6000 X113.35 Y88.18
G1 F2100 X113.99 Y88.82 E82.70724
G0 F6000 X114.56 Y88.82
G1 F2100 X113.92 Y88.18 E82.71311
G0 F6000 X114.48 Y88.18
G1 F2100 X115.12 Y88.82 E82.71898
G0 F6000 X115.69 Y88.82
G1 F2100 X115.05 Y88.18 E82.72485
G0 F6000 X115.62 Y88.18
G1 F2100 X120.82 Y93.38 E82.77266
G0 F6000 X120.82 Y92.82
G1 F2100 X116.18 Y88.18 E82.81528
G0 F6000 X116.75 Y88.18
G1 F2100 X120.82 Y92.25 E82.85270
G0 F6000 X120.82 Y91.69
G1 F2100 X117.31 Y88.18 E82.88492
G0 F6000 X117.88 Y88.18
G1 F2100 X120.82 Y91.12 E82.91195
G0 F6000 X120.82 Y90.56
G1 F2100 X118.44 Y88.18 E82.93377
G0 F6000 X119.01 Y88.18
G1 F2100 X120.82 Y89.99 E82.95040
G0 F6000 X120.82 Y89.42
G1 F2100 X119.58 Y88.18 E82.96184
G0 F6000 X120.14 Y88.18
G1 F2100 X120.82 Y88.86 E82.96807
G0 F6000 X120.82 Y88.29
G1 F2100 X120.71 Y88.18 E82.96911
G0 F6000 X115.88 Y89.01
G1 F2100 X120.82 Y93.95 E83.01450
G0 F6000 X120.82 Y94.52
G1 F2100 X115.88 Y89.57 E83.05990
G0 F6000 X115.88 Y90.14
G1 F2100 X120.82 Y95.08 E83.10529
G0 F6000 X120.82 Y95.65
G1 F2100 X115.88 Y90.71 E83.15069
G0 F6000 X115.88 Y91.27
G1 F2100 X120.82 Y96.21 E83.19608
G0 F6000 X120.82 Y96.78
G1 F2100 X115.88 Y91.84 E83.24148
G0 F6000 X115.88 Y92.40
G1 F2100 X120.82 Y97.34 E83.28687
G0 F6000 X120.82 Y97.91
G1 F2100 X115.88 Y92.97 E83.33226
G0 F6000 X115.88 Y93.53
G1 F2100 X120.82 Y98.47 E83.37766
G0 F6000 X120.82 Y99.04
G1 F2100 X115.88 Y94.10 E83.42305
G0 F6000 X115.88 Y94.67
G1 F2100 X120.82 Y99.61 E83.46844
G0 F6000 X120.82 Y100.17
G1 F2100 X115.88 Y95.23 E83.51383
G0 F6000 X115.88 Y95.80
G1 F2100 X120.82 Y100.74 E83.55923
G0 F6000 X120.82 Y101.30
G1 F2100 X115.88 Y96.36 E83.60462
G0 F6000 X115.88 Y96.93
G1 F2100 X120.82 Y101.87 E83.65002
G0 F6000 X120.82 Y102.44
G1 F2100 X115.88 Y97.49 E83.69541
G0 F6000 X115.88 Y98.06
G1 F2100 X120.82 Y103.00 E83.74080
G0 F6000 X120.82 Y103.57
G1 F2100 X115.88 Y98.62 E83.78620
G0 F6000 X115.88 Y99.19
G1 F2100 X120.82 Y104.13 E83.83159
G0 F6000 X120.82 Y104.70
G1 F2100 X115.88 Y99.76 E83.87698
G0 F6000 X115.88 Y100.32
G1 F2100 X120.82 Y105.26 E83.92238
G0 F6000 X120.82 Y105.83
G1 F2100 X115.88 Y100.89 E83.96777
G0 F6000 X115.88 Y101.45
G1 F2100 X120.82 Y106.39 E84.01317
G0 F6000 X120.82 Y106.96
G1 F2100 X115.88 Y102.02 E84.05856
G0 F6000 X115.88 Y102.58
G1 F2100 X120.82 Y107.53 E84.10396
G0 F6000 X120.82 Y108.09
G1 F2100 X115.88 Y103.15 E84.14935
G0 F6000 X115.88 Y103.72
G1 F2100 X120.82 Y108.66 E84.19474
G0 F6000 X120.82 Y109.22
G1 F2100 X115.88 Y104.28 E84.24013
G0 F6000 X115.88 Y104.85
G1 F2100 X120.82 Y109.79 E84.28553
G0 F6000 X120.82 Y110.36
G1 F2100 X115.88 Y105.41 E84.33092
G0 F6000 X115.88 Y105.98
G1 F2100 X120.82 Y110.92 E84.37631
G0 F6000 X120.82 Y111.49
G1 F2100 X115.88 Y106.55 E84.42171
G0 F6000 X115.88 Y107.11
G1 F2100 X120.82 Y112.05 E84.46710
G0 F6000 X120.82 Y112.62
G1 F2100 X115.88 Y107.68 E84.51250
G0 F6000 X115.88 Y108.24
G1 F2100 X120.82 Y113.18 E84.55789
G0 F6000 X120.82 Y113.75
G1 F2100 X115.88 Y108.81 E84.60328
G0 F6000 X115.88 Y109.37
G1 F2100 X120.82 Y114.31 E84.64868
G0 F6000 X120.82 Y114.88
G1 F2100 X115.88 Y109.94 E84.69407
G0 F6000 X115.88 Y110.50
G1 F2100 X120.82 Y115.45 E84.73946
G0 F6000 X120.82 Y116.01
G1 F2100 X115.88 Y111.07 E84.78486
G0 F6000 X115.74 Y116.04
G0 X88.82 Y116.82
G1 F2100 X84.18 Y112.18 E84.82745
G0 F6000 X84.18 Y112.75
G1 F2100 X88.25 Y116.82 E84.86484
G0 F6000 X87.69 Y116.82
G1 F2100 X84.18 Y113.31 E84.89703
G0 F6000 X84.18 Y113.88
G1 F2100 X87.12 Y116.82 E84.92403
G0 F6000 X86.55 Y116.82
G1 F2100 X84.18 Y114.44 E84.94583
G0 F6000 X84.18 Y115.01
G1 F2100 X85.99 Y116.82 E84.96243
G0 F6000 X85.42 Y116.82
G1 F2100 X84.18 Y115.58 E84.97384
G0 F6000 X84.18 Y116.14
G1 F2100 X84.86 Y116.82 E84.98005
G0 F6000 X84.29 Y116.82
G1 F2100 X84.18 Y116.71 E84.98107
G1 F1800 E77.48107
G1 Z0.78
G0 F6000 X124.64 Y110.52
;TYPE:SUPPORT
G1 Z0.70
G1 F1800 E84.98107
G1 F2100 X124.64 Y94.48 E85.08526
G0 F6000 X125.97 Y94.48
G1 F2100 X125.97 Y110.52 E85.18946
G0 F6000 X127.30 Y110.52
G1 F2100 X127.30 Y103.88 E85.23259
G0 F6000 X128.63 Y104.28
G1 F2100 X128.63 Y110.52 E85.27316
G0 F6000 X129.97 Y110.45
G1 F2100 X129.97 Y103.34 E85.31935
G0 F6000 X130.12 Y103.49
G0 X130.49 Y103.05
G0 X130.49 Y101.75
G0 X130.12 Y101.31
G0 X129.97 Y101.46
G1 F2100 X129.97 Y94.48 E85.36472
G0 F6000 X128.63 Y94.48
G1 F2100 X128.63 Y100.68 E85.40502
G0 F6000 X127.30 Y100.92
G1 F2100 X127.30 Y94.48 E85.44686
G0 F6000 X127.30 Y94.70
G0 X131.23 Y95.01
G0 X131.30 Y94.80
G1 F2100 X131.30 Y110.00 E85.54560
G0 F6000 X132.63 Y109.35
G1 F2100 X132.63 Y95.45 E85.63595
G0 F6000 X132.53 Y95.64
G0 X133.81 Y96.52
G0 X133.97 Y96.37
G1 F2100 X133.97 Y108.52 E85.71490
G0 F6000 X133.97 Y108.30
G0 X135.12 Y106.77
G0 X135.30 Y106.90
G1 F2100 X135.30 Y97.70 E85.77466
G1 F1800 E78.27466
G1 Z0.78
G0 F6000 X80.65 Y94.48
G1 Z0.70
G1 F1800 E85.77466
G1 F2100 X80.65 Y110.52 E85.87886
G0 F6000 X79.31 Y110.52
G1 F2100 X79.31 Y94.48 E85.98305
G0 F6000 X77.98 Y94.48
G1 F2100 X77.98 Y101.48 E86.02851
G0 F6000 X78.14 Y101.32
G0 X77.87 Y100.63
G0 X77.38 Y100.36
G0 X76.64 Y100.47
G0 X76.65 Y100.69
G1 F2100 X76.65 Y94.48 E86.06888
G0 F6000 X75.31 Y94.48
G1 F2100 X75.31 Y100.91 E86.11067
G0 F6000 X75.22 Y100.72
G0 X74.42 Y101.75
G0 X74.62 Y103.45
G0 X75.22 Y104.08
G0 X75.31 Y103.89
G1 F2100 X75.31 Y110.35 E86.15266
G0 F6000 X76.65 Y110.52
G1 F2100 X76.65 Y104.28 E86.19321
G0 F6000 X76.59 Y104.49
G0 X77.87 Y104.17
G0 X78.14 Y103.48
G0 X77.98 Y103.32
G1 F2100 X77.98 Y110.52 E86.23996
G0 F6000 X77.98 Y110.30
G0 X74.05 Y109.79
G0 X73.98 Y110.00
G1 F2100 X73.98 Y94.80 E86.33864
G0 F6000 X72.65 Y95.45
G1 F2100 X72.65 Y109.34 E86.42888
G0 F6000 X72.80 Y109.19
G0 X71.41 Y108.38
G0 X71.31 Y108.58
G1 F2100 X71.31 Y96.22 E86.50912
G0 F6000 X69.98 Y96.89
G1 F2100 X69.98 Y107.91 E86.58072
G0 F6000 X70.15 Y107.75
G0 X70.08 Y106.75
G0 X68.80 Y104.79
G0 X68.65 Y104.95
G1 F2100 X68.65 Y99.85 E86.61379
;LAYER:3
M106 S127
G1 F1800 E79.11379
G1 Z0.78
G0 F6000 X84.10 Y88.10 Z0.80
;TYPE:WALL-INNER
G1 Z0.80
G1 F1800 E86.61379
G1 F2220 X120.90 Y88.10 E86.85285
G1 X120.90 Y116.90 E87.03994
G1 X84.10 Y116.90 E87.27900
G1 X84.10 Y88.10 E87.46607
G0 F6000 X89.20 Y88.90
G1 F2220 X89.20 Y116.10 E87.64276
G1 X115.80 Y116.10 E87.81555
G1 X115.80 Y88.90 E87.99224
G1 X89.20 Y88.90 E88.16503
G0 F6000 X89.60 Y89.30
;TYPE:WALL-OUTER
G1 F2220 X89.60 Y115.70 E88.33653
G1 X115.40 Y115.70 E88.50412
G1 X115.40 Y89.30 E88.67562
G1 X89.60 Y89.30 E88.84321
G0 F6000 X89.30 Y89.30
G0 X84.00 Y87.91
G0 X83.70 Y87.70
G1 F2220 X121.30 Y87.70 E89.08746
G1 X121.30 Y117.30 E89.27975
G1 X83.70 Y117.30 E89.52400
G1 X83.70 Y87.70 E89.71628
G0 F6000 X84.18 Y88.64
;TYPE:FILL
G1 F2220 X84.64 Y88.18 E89.72046
G0 F6000 X85.20 Y88.18
G1 F2220 X84.18 Y89.20 E89.72984
G0 F6000 X84.18 Y89.77
G1 F2220 X85.77 Y88.18 E89.74441
G0 F6000 X86.33 Y88.18
G1 F2220 X84.18 Y90.33 E89.76418
G0 F6000 X84.18 Y90.90
G1 F2220 X86.90 Y88.18 E89.78915
G0 F6000 X87.46 Y88.18
G1 F2220 X84.18 Y91.46 E89.81932
G0 F6000 X84.18 Y92.03
G1 F2220 X88.03 Y88.18 E89.85468
G0 F6000 X88.60 Y88.18
G1 F2220 X84.18 Y92.59 E89.89524
G0 F6000 X84.18 Y93.16
G1 F2220 X89.16 Y88.18 E89.94099
G0 F6000 X89.73 Y88.18
G1 F2220 X84.18 Y93.73 E89.99195
G0 F6000 X84.18 Y94.29
G1 F2220 X89.12 Y89.35 E90.03732
G0 F6000 X89.12 Y89.92
G1 F2220 X84.18 Y94.86 E90.08270
G0 F6000 X84.18 Y95.42
G1 F2220 X89.12 Y90.48 E90.12807
G0 F6000 X89.12 Y91.05
G1 F2220 X84.18 Y95.99 E90.17345
G0 F6000 X84.18 Y96.56
G1 F2220 X89.12 Y91.62 E90.21882
G0 F6000 X89.12 Y92.18
G1 F2220 X84.18 Y97.12 E90.26420
G0 F6000 X84.18 Y97.69
G1 F2220 X89.12 Y92.75 E90.30958
G0 F6000 X89.12 Y93.31
G1 F2220 X84.18 Y98.25 E90.35495
G0 F6000 X84.18 Y98.82
G1 F2220 X89.12 Y93.88 E90.40032
G0 F6000 X89.12 Y94.44
G1 F2220 X84.18 Y99.38 E90.44570
G0 F6000 X84.18 Y99.95
G1 F2220 X89.12 Y95.01 E90.49107
G0 F6000 X89.12 Y95.58
G1 F2220 X84.18 Y100.52 E90.53645
G0 F6000 X84.18 Y101.08
G1 F2220 X89.12 Y96.14 E90.58182
G0 F6000 X89.12 Y96.71
G1 F2220 X84.18 Y101.65 E90.62719
G0 F6000 X84.18 Y102.21
G1 F2220 X89.12 Y97.27 E90.67257
G0 F6000 X89.12 Y97.84
G1 F2220 X84.18 Y102.78 E90.71794
G0 F6000 X84.18 Y103.34
G1 F2220 X89.12 Y98.40 E90.76332
G0 F6000 X89.12 Y98.97
G1 F2220 X84.18 Y103.91 E90.80869
G0 F6000 X84.18 Y104.47
G1 F2220 X89.12 Y99.53 E90.85407
G0 F6000 X89.12 Y100.10
G1 F2220 X84.18 Y105.04 E90.89944
G0 F6000 X84.18 Y105.61
G1 F2220 X89.12 Y100.67 E90.94482
G0 F6000 X89.12 Y101.23
G1 F2220 X84.18 Y106.17 E90.99020
G0 F6000 X84.18 Y106.74
G1 F2220 X89.12 Y101.80 E91.03557
G0 F6000 X89.12 Y102.36
G1 F2220 X84.18 Y107.30 E91.08094
G0 F6000 X84.18 Y107.87
G1 F2220 X89.12 Y102.93 E91.12632
G0 F6000 X89.12 Y103.50
G1 F2220 X84.18 Y108.43 E91.17170
G0 F6000 X84.18 Y109.00
G1 F2220 X89.12 Y104.06 E91.21707
G0 F6000 X89.12 Y104.63
G1 F2220 X84.18 Y109.57 E91.26245
G0 F6000 X84.18 Y110.13
G1 F2220 X89.12 Y105.19 E91.30782
G0 F6000 X89.12 Y105.76
G1 F2220 X84.18 Y110.70 E91.35319
G0 F6000 X84.18 Y111.26
G1 F2220 X89.12 Y106.32 E91.39857
G0 F6000 X89.12 Y106.89
G1 F2220 X84.18 Y111.83 E91.44394
G0 F6000 X84.18 Y112.39
G1 F2220 X89.12 Y107.45 E91.48932
G0 F6000 X89.12 Y108.02
G1 F2220 X84.18 Y112.96 E91.53469
G0 F6000 X84.18 Y113.53
G1 F2220 X89.12 Y108.59 E91.58006
G0 F6000 X89.12 Y109.15
G1 F2220 X84.18 Y114.09 E91.62544
G0 F6000 X84.18 Y114.66
G1 F2220 X89.12 Y109.72 E91.67081
G0 F6000 X89.12 Y110.28
G1 F2220 X84.18 Y115.22 E91.71619
G0 F6000 X84.18 Y115.79
G1 F2220 X89.12 Y110.85 E91.76156
G0 F6000 X89.12 Y111.42
G1 F2220 X84.18 Y116.35 E91.80694
G0 F6000 X84.28 Y116.82
G1 F2220 X89.12 Y111.98 E91.85139
G0 F6000 X89.12 Y112.55
G1 F2220 X84.85 Y116.82 E91.89064
G0 F6000 X85.41 Y116.82
G1 F2220 X89.12 Y113.11 E91.92469
G0 F6000 X89.12 Y113.68
G1 F2220 X85.98 Y116.82 E91.95354
G0 F6000 X86.54 Y116.82
G1 F2220 X89.12 Y114.24 E91.97720
G0 F6000 X89.12 Y114.81
G1 F2220 X87.11 Y116.82 E91.99566
G0 F6000 X87.68 Y116.82
G1 F2220 X89.12 Y115.38 E92.00892
G0 F6000 X89.12 Y115.94
G1 F2220 X88.24 Y116.82 E92.01699
G0 F6000 X88.81 Y116.82
G1 F2220 X89.45 Y116.18 E92.02287
G0 F6000 X90.01 Y116.18
G1 F2220 X89.37 Y116.82 E92.02874
G0 F6000 X89.94 Y116.82
G1 F2220 X90.58 Y116.18 E92.03461
G0 F6000 X91.14 Y116.18
G1 F2220 X90.50 Y116.82 E92.04049
G0 F6000 X91.07 Y116.82
G1 F2220 X91.71 Y116.18 E92.04636
G0 F6000 X92.28 Y116.18
G1 F2220 X91.64 Y116.82 E92.05224
G0 F6000 X92.20 Y116.82
G1 F2220 X92.84 Y116.18 E92.05811
G0 F6000 X93.41 Y116.18
G1 F2220 X92.77 Y116.82 E92.06399
G0 F6000 X93.33 Y116.82
G1 F2220 X93.97 Y116.18 E92.06986
G0 F6000 X94.54 Y116.18
G1 F2220 X93.90 Y116.82 E92.07574
G0 F6000 X94.46 Y116.82
G1 F2220 X95.10 Y116.18 E92.08161
G0 F6000 X95.67 Y116.18
G1 F2220 X95.03 Y116.82 E92.08749
G0 F6000 X95.59 Y116.82
G1 F2220 X96.23 Y116.18 E92.09336
G0 F6000 X96.80 Y116.18
G1 F2220 X96.16 Y116.82 E92.09924
G0 F6000 X96.73 Y116.82
G1 F2220 X97.37 Y116.18 E92.10511
G0 F6000 X97.93 Y116.18
G1 F2220 X97.29 Y116.82 E92.11099
G0 F6000 X97.86 Y116.82
G1 F2220 X98.50 Y116.18 E92.11686
G0 F6000 X99.06 Y116.18
G1 F2220 X98.42 Y116.82 E92.12274
G0 F6000 X98.99 Y116.82
G1 F2220 X99.63 Y116.18 E92.12861
G0 F6000 X100.19 Y116.18
G1 F2220 X99.56 Y116.82 E92.13449
G0 F6000 X100.12 Y116.82
G1 F2220 X100.76 Y116.18 E92.14036
G0 F6000 X101.33 Y116.18
G1 F2220 X100.69 Y116.82 E92.14623
G0 F6000 X101.25 Y116.82
G1 F2220 X101.89 Y116.18 E92.15211
G0 F6000 X102.46 Y116.18
G1 F2220 X101.82 Y116.82 E92.15798
G0 F6000 X102.38 Y116.82
G1 F2220 X103.02 Y116.18 E92.16386
G0 F6000 X103.59 Y116.18
G1 F2220 X102.95 Y116.82 E92.16974
G0 F6000 X103.51 Y116.82
G1 F2220 X104.16 Y116.18 E92.17562
G0 F6000 X104.72 Y116.18
G1 F2220 X104.08 Y116.82 E92.18151
G0 F6000 X104.65 Y116.82
G1 F2220 X105.29 Y116.18 E92.18739
G0 F6000 X105.85 Y116.18
G1 F2220 X105.21 Y116.82 E92.19327
G0 F6000 X105.78 Y116.82
G1 F2220 X106.42 Y116.18 E92.19916
G0 F6000 X106.98 Y116.18
G1 F2220 X106.34 Y116.82 E92.20504
G0 F6000 X106.91 Y116.82
G1 F2220 X107.55 Y116.18 E92.21092
G0 F6000 X108.11 Y116.18
G1 F2220 X107.47 Y116.82 E92.21680
G0 F6000 X108.04 Y116.82
G1 F2220 X108.68 Y116.18 E92.22268
G0 F6000 X109.25 Y116.18
G1 F2220 X108.61 Y116.82 E92.22857
G0 F6000 X109.17 Y116.82
G1 F2220 X109.81 Y116.18 E92.23445
G0 F6000 X110.38 Y116.18
G1 F2220 X109.74 Y116.82 E92.24033
G0 F6000 X110.30 Y116.82
G1 F2220 X110.94 Y116.18 E92.24621
G0 F6000 X111.51 Y116.18
G1 F2220 X110.87 Y116.82 E92.25209
G0 F6000 X111.43 Y116.82
G1 F2220 X112.08 Y116.18 E92.25798
G0 F6000 X112.64 Y116.18
G1 F2220 X112.00 Y116.82 E92.26386
G0 F6000 X112.56 Y116.82
G1 F2220 X113.21 Y116.18 E92.26974
G0 F6000 X113.77 Y116.18
G1 F2220 X113.13 Y116.82 E92.27563
G0 F6000 X113.70 Y116.82
G1 F2220 X114.34 Y116.18 E92.28151
G0 F6000 X114.90 Y116.18
G1 F2220 X114.26 Y116.82 E92.28739
G0 F6000 X114.83 Y116.82
G1 F2220 X115.47 Y116.18 E92.29328
G0 F6000 X115.88 Y115.77
G1 F2220 X120.82 Y110.83 E92.33867
G0 F6000 X120.82 Y111.39
G1 F2220 X115.39 Y116.82 E92.38852
G0 F6000 X115.96 Y116.82
G1 F2220 X120.82 Y111.96 E92.43317
G0 F6000 X120.82 Y112.52
G1 F2220 X116.53 Y116.82 E92.47263
G0 F6000 X117.09 Y116.82
G1 F2220 X120.82 Y113.09 E92.50688
G0 F6000 X120.82 Y113.66
G1 F2220 X117.66 Y116.82 E92.53595
G0 F6000 X118.22 Y116.82
G1 F2220 X120.82 Y114.22 E92.55981
G0 F6000 X120.82 Y114.79
G1 F2220 X118.79 Y116.82 E92.57848
G0 F6000 X119.35 Y116.82
G1 F2220 X120.82 Y115.35 E92.59196
G0 F6000 X120.82 Y115.92
G1 F2220 X119.92 Y116.82 E92.60023
G0 F6000 X120.48 Y116.82
G1 F2220 X120.82 Y116.48 E92.60331
G0 F6000 X115.88 Y115.20
G1 F2220 X120.82 Y110.26 E92.64870
G0 F6000 X120.82 Y109.70
G1 F2220 X115.88 Y114.64 E92.69409
G0 F6000 X115.88 Y114.07
G1 F2220 X120.82 Y109.13 E92.73948
G0 F6000 X120.82 Y108.56
G1 F2220 X115.88 Y113.50 E92.78488
G0 F6000 X115.88 Y112.94
G1 F2220 X120.82 Y108.00 E92.83026
G0 F6000 X120.82 Y107.43
G1 F2220 X115.88 Y112.37 E92.87566
G0 F6000 X115.88 Y111.81
G1 F2220 X120.82 Y106.87 E92.92105
G0 F6000 X120.82 Y106.30
G1 F2220 X115.88 Y111.24 E92.96644
G0 F6000 X115.88 Y110.68
G1 F2220 X120.82 Y105.74 E93.01183
G0 F6000 X120.82 Y105.17
G1 F2220 X115.88 Y110.11 E93.05722
G0 F6000 X115.88 Y109.55
G1 F2220 X120.82 Y104.61 E93.10261
G0 F6000 X120.82 Y104.04
G1 F2220 X115.88 Y108.98 E93.14800
G0 F6000 X115.88 Y108.41
G1 F2220 X120.82 Y103.47 E93.19339
G0 F6000 X120.82 Y102.91
G1 F2220 X115.88 Y107.85 E93.23878
G0 F6000 X115.88 Y107.28
G1 F2220 X120.82 Y102.34 E93.28417
G0 F6000 X120.82 Y101.78
G1 F2220 X115.88 Y106.72 E93.32956
G0 F6000 X115.88 Y106.15
G1 F2220 X120.82 Y101.21 E93.37495
G0 F6000 X120.82 Y100.64
G1 F2220 X115.88 Y105.58 E93.42034
G0 F6000 X115.88 Y105.02
G1 F2220 X120.82 Y100.08 E93.46573
G0 F6000 X120.82 Y99.51
G1 F2220 X115.88 Y104.45 E93.51112
G0 F6000 X115.88 Y103.89
G1 F2220 X120.82 Y98.95 E93.55651
G0 F6000 X120.82 Y98.38
G1 F2220 X115.88 Y103.32 E93.60190
G0 F6000 X115.88 Y102.76
G1 F2220 X120.82 Y97.82 E93.64730
G0 F6000 X120.82 Y97.25
G1 F2220 X115.88 Y102.19 E93.69268
G0 F6000 X115.88 Y101.63
G1 F2220 X120.82 Y96.69 E93.73808
G0 F6000 X120.82 Y96.12
G1 F2220 X115.88 Y101.06 E93.78347
G0 F6000 X115.88 Y100.49
G1 F2220 X120.82 Y95.55 E93.82886
G0 F6000 X120.82 Y94.99
G1 F2220 X115.88 Y99.93 E93.87425
G0 F6000 X115.88 Y99.36
G1 F2220 X120.82 Y94.42 E93.91964
G0 F6000 X120.82 Y93.86
G1 F2220 X115.88 Y98.80 E93.96503
G0 F6000 X115.88 Y98.23
G1 F2220 X120.82 Y93.29 E94.01042
G0 F6000 X120.82 Y92.72
G1 F2220 X115.88 Y97.67 E94.05581
G0 F6000 X115.88 Y97.10
G1 F2220 X120.82 Y92.16 E94.10120
G0 F6000 X120.82 Y91.59
G1 F2220 X115.88 Y96.53 E94.14659
G0 F6000 X115.88 Y95.97
G1 F2220 X120.82 Y91.03 E94.19198
G0 F6000 X120.82 Y90.46
G1 F2220 X115.88 Y95.40 E94.23737
G0 F6000 X115.88 Y94.84
G1 F2220 X120.82 Y89.90 E94.28276
G0 F6000 X120.82 Y89.33
G1 F2220 X115.88 Y94.27 E94.32815
G0 F6000 X115.88 Y93.71
G1 F2220 X120.82 Y88.77 E94.37354
G0 F6000 X120.82 Y88.20
G1 F2220 X115.88 Y93.14 E94.41893
G0 F6000 X115.88 Y92.58
G1 F2220 X120.27 Y88.18 E94.45931
G0 F6000 X119.71 Y88.18
G1 F2220 X115.88 Y92.01 E94.49448
G0 F6000 X115.88 Y91.44
G1 F2220 X119.14 Y88.18 E94.52447
G0 F6000 X118.58 Y88.18
G1 F2220 X115.88 Y90.88 E94.54925
G0 F6000 X115.88 Y90.31
G1 F2220 X118.01 Y88.18 E94.56884
G0 F6000 X117.45 Y88.18
G1 F2220 X115.88 Y89.75 E94.58323
G0 F6000 X115.88 Y89.18
G1 F2220 X116.88 Y88.18 E94.59243
G0 F6000 X116.31 Y88.18
G1 F2220 X115.67 Y88.82 E94.59831
G0 F6000 X115.11 Y88.82
G1 F2220 X115.75 Y88.18 E94.60419
G0 F6000 X115.18 Y88.18
G1 F2220 X114.54 Y88.82 E94.61006
G0 F6000 X113.98 Y88.82
G1 F2220 X114.62 Y88.18 E94.61594
G0 F6000 X114.05 Y88.18
G1 F2220 X113.41 Y88.82 E94.62182
G0 F6000 X112.85 Y88.82
G1 F2220 X113.49 Y88.18 E94.62770
G0 F6000 X112.92 Y88.18
G1 F2220 X112.28 Y88.82 E94.63358
G0 F6000 X111.72 Y88.82
G1 F2220 X112.36 Y88.18 E94.63946
G0 F6000 X111.79 Y88.18
G1 F2220 X111.15 Y88.82 E94.64534
G0 F6000 X110.58 Y88.82
G1 F2220 X111.22 Y88.18 E94.65122
G0 F6000 X110.66 Y88.18
G1 F2220 X110.02 Y88.82 E94.65710
G0 F6000 X109.45 Y88.82
G1 F2220 X110.09 Y88.18 E94.66298
G0 F6000 X109.53 Y88.18
G1 F2220 X108.89 Y88.82 E94.66886
G0 F6000 X108.32 Y88.82
G1 F2220 X108.96 Y88.18 E94.67474
G0 F6000 X108.39 Y88.18
G1 F2220 X107.75 Y88.82 E94.68062
G0 F6000 X107.19 Y88.82
G1 F2220 X107.83 Y88.18 E94.68650
G0 F6000 X107.26 Y88.18
G1 F2220 X106.62 Y88.82 E94.69237
G0 F6000 X106.06 Y88.82
G1 F2220 X106.70 Y88.18 E94.69825
G0 F6000 X106.13 Y88.18
G1 F2220 X105.49 Y88.82 E94.70413
G0 F6000 X104.93 Y88.82
G1 F2220 X105.57 Y88.18 E94.71001
G0 F6000 X105.00 Y88.18
G1 F2220 X104.36 Y88.82 E94.71589
G0 F6000 X103.80 Y88.82
G1 F2220 X104.44 Y88.18 E94.72177
G0 F6000 X103.87 Y88.18
G1 F2220 X103.23 Y88.82 E94.72765
G0 F6000 X102.66 Y88.82
G1 F2220 X103.30 Y88.18 E94.73353
G0 F6000 X102.74 Y88.18
G1 F2220 X102.10 Y88.82 E94.73941
G0 F6000 X101.53 Y88.82
G1 F2220 X102.17 Y88.18 E94.74529
G0 F6000 X101.61 Y88.18
G1 F2220 X100.97 Y88.82 E94.75117
G0 F6000 X100.40 Y88.82
G1 F2220 X101.04 Y88.18 E94.75705
G0 F6000 X100.47 Y88.18
G1 F2220 X99.83 Y88.82 E94.76293
G0 F6000 X99.27 Y88.82
G1 F2220 X99.91 Y88.18 E94.76881
G0 F6000 X99.34 Y88.18
G1 F2220 X98.70 Y88.82 E94.77468
G0 F6000 X98.14 Y88.82
G1 F2220 X98.78 Y88.18 E94.78056
G0 F6000 X98.21 Y88.18
G1 F2220 X97.57 Y88.82 E94.78644
G0 F6000 X97.01 Y88.82
G1 F2220 X97.65 Y88.18 E94.79232
G0 F6000 X97.08 Y88.18
G1 F2220 X96.44 Y88.82 E94.79820
G0 F6000 X95.88 Y88.82
G1 F2220 X96.52 Y88.18 E94.80408
G0 F6000 X95.95 Y88.18
G1 F2220 X95.31 Y88.82 E94.80996
G0 F6000 X94.74 Y88.82
G1 F2220 X95.38 Y88.18 E94.81584
G0 F6000 X94.82 Y88.18
G1 F2220 X94.18 Y88.82 E94.82172
G0 F6000 X93.61 Y88.82
G1 F2220 X94.25 Y88.18 E94.82760
G0 F6000 X93.69 Y88.18
G1 F2220 X93.05 Y88.82 E94.83348
G0 F6000 X92.48 Y88.82
G1 F2220 X93.12 Y88.18 E94.83936
G0 F6000 X92.56 Y88.18
G1 F2220 X91.92 Y88.82 E94.84524
G0 F6000 X91.35 Y88.82
G1 F2220 X91.99 Y88.18 E94.85112
G0 F6000 X91.42 Y88.18
G1 F2220 X90.78 Y88.82 E94.85700
G0 F6000 X90.22 Y88.82
G1 F2220 X90.86 Y88.18 E94.86287
G0 F6000 X90.29 Y88.18
G1 F2220 X89.65 Y88.82 E94.86875
G1 F1800 E87.36875
G1 Z0.88
G0 F6000 X80.65 Y94.48
;TYPE:SUPPORT
G1 Z0.80
G1 F1800 E94.86875
G1 F2220 X80.65 Y110.52 E94.97295
G0 F6000 X79.31 Y110.52
G1 F2220 X79.31 Y94.48 E95.07715
G0 F6000 X77.98 Y94.48
G1 F2220 X77.98 Y101.48 E95.12260
G0 F6000 X78.14 Y101.32
G0 X77.87 Y100.63
G0 X77.38 Y100.36
G0 X76.64 Y100.47
G0 X76.65 Y100.69
G1 F2220 X76.65 Y94.48 E95.16298
G0 F6000 X75.31 Y94.48
G1 F2220 X75.31 Y100.91 E95.20477
G0 F6000 X75.22 Y100.72
G0 X74.42 Y101.75
G0 X74.62 Y103.45
G0 X75.22 Y104.08
G0 X75.31 Y103.89
G1 F2220 X75.31 Y110.35 E95.24676
G0 F6000 X76.65 Y110.52
G1 F2220 X76.65 Y104.28 E95.28731
G0 F6000 X76.59 Y104.49
G0 X77.87 Y104.17
G0 X78.14 Y103.48
G0 X77.98 Y103.32
G1 F2220 X77.98 Y110.52 E95.33406
G0 F6000 X77.98 Y110.30
G0 X74.05 Y109.79
G0 X73.98 Y110.00
G1 F2220 X73.98 Y94.80 E95.43274
G0 F6000 X72.65 Y95.45
G1 F2220 X72.65 Y109.34 E95.52297
G0 F6000 X72.80 Y109.19
G0 X71.41 Y108.38
G0 X71.31 Y108.58
G1 F2220 X71.31 Y96.22 E95.60322
G0 F6000 X69.98 Y96.89
G1 F2220 X69.98 Y107.91 E95.67481
G0 F6000 X70.15 Y107.75
G0 X70.08 Y106.75
G0 X68.80 Y104.79
G0 X68.65 Y104.95
G1 F2220 X68.65 Y99.85 E95.70789
G1 F1800 E88.20789
G1 Z0.88
G0 F6000 X124.64 Y94.48
G1 Z0.80
G1 F1800 E95.70789
G1 F2220 X124.64 Y110.52 E95.81209
G0 F6000 X125.97 Y110.52
G1 F2220 X125.97 Y94.48 E95.91629
G0 F6000 X127.30 Y94.48
G1 F2220 X127.30 Y100.92 E95.95812
G0 F6000 X128.63 Y100.68
G1 F2220 X128.63 Y94.48 E95.99842
G0 F6000 X129.97 Y94.48
G1 F2220 X129.97 Y101.46 E96.04379
G0 F6000 X130.12 Y101.31
G0 X130.49 Y101.75
G0 X130.49 Y103.05
G0 X130.12 Y103.49
G0 X129.97 Y103.34
G1 F2220 X129.97 Y110.45 E96.08999
G0 F6000 X128.63 Y110.52
G1 F2220 X128.63 Y104.28 E96.13055
G0 F6000 X127.30 Y103.88
G1 F2220 X127.30 Y110.52 E96.17368
G0 F6000 X127.30 Y110.30
G0 X131.23 Y109.79
G0 X131.30 Y110.00
G1 F2220 X131.30 Y94.80 E96.27243
G0 F6000 X132.63 Y95.45
G1 F2220 X132.63 Y109.35 E96.36278
G0 F6000 X132.53 Y109.16
G0 X133.97 Y108.30
G0 X133.97 Y108.52
G1 F2220 X133.97 Y96.37 E96.44172
G0 F6000 X133.81 Y96.52
G0 X135.15 Y97.86
G0 X135.30 Y97.70
G1 F2220 X135.30 Y106.90 E96.50148
;LAYER:4
G1 F1800 E89.00148
G1 Z0.88
G0 F6000 X120.90 Y116.90 Z0.90
;TYPE:WALL-INNER
G1 Z0.90
G1 F1800 E96.50148
G1 F2400 X84.10 Y116.90 E96.74054
G1 X84.10 Y88.10 E96.92761
G1 X120.90 Y88.10 E97.16667
G1 X120.90 Y116.90 E97.35376
G0 F6000 X115.80 Y116.10
G1 F2400 X115.80 Y88.90 E97.53045
G1 X89.20 Y88.90 E97.70325
G1 X89.20 Y116.10 E97.87993
G1 X115.80 Y116.10 E98.05272
G0 F6000 X115.40 Y115.70
;TYPE:WALL-OUTER
G1 F2400 X115.40 Y89.30 E98.22422
G1 X89.60 Y89.30 E98.39181
G1 X89.60 Y115.70 E98.56331
G1 X115.40 Y115.70 E98.73090
G0 F6000 X115.40 Y116.00
G0 X121.00 Y117.09
G0 X121.30 Y117.30
G1 F2400 X83.70 Y117.30 E98.97515
G1 X83.70 Y87.70 E99.16743
G1 X121.30 Y87.70 E99.41168
G1 X121.30 Y117.30 E99.60396
G0 F6000 X120.82 Y116.58
;TYPE:FILL
G1 F2400 X115.88 Y111.64 E99.64936
G0 F6000 X115.88 Y112.20
G1 F2400 X120.50 Y116.82 E99.69176
G0 F6000 X119.93 Y116.82
G1 F2400 X115.88 Y112.77 E99.72898
G0 F6000 X115.88 Y113.33
G1 F2400 X119.36 Y116.82 E99.76100
G0 F6000 X118.80 Y116.82
G1 F2400 X115.88 Y113.90 E99.78781
G0 F6000 X115.88 Y114.47
G1 F2400 X118.23 Y116.82 E99.80943
G0 F6000 X117.67 Y116.82
G1 F2400 X115.88 Y115.03 E99.82586
G0 F6000 X115.88 Y115.60
G1 F2400 X117.10 Y116.82 E99.83709
G0 F6000 X116.54 Y116.82
G1 F2400 X115.88 Y116.16 E99.84312
G0 F6000 X115.33 Y116.18
G1 F2400 X115.97 Y116.82 E99.84899
G0 F6000 X115.40 Y116.82
G1 F2400 X114.77 Y116.18 E99.85486
G0 F6000 X114.20 Y116.18
G1 F2400 X114.84 Y116.82 E99.86073
G0 F6000 X114.27 Y116.82
G1 F2400 X113.63 Y116.18 E99.86660
G0 F6000 X113.07 Y116.18
G1 F2400 X113.71 Y116.82 E99.87247
G0 F6000 X113.14 Y116.82
G1 F2400 X112.50 Y116.18 E99.87835
G0 F6000 X111.94 Y116.18
G1 F2400 X112.58 Y116.82 E99.88422
G0 F6000 X112.01 Y116.82
G1 F2400 X111.37 Y116.18 E99.89009
G0 F6000 X110.81 Y116.18
G1 F2400 X111.44 Y116.82 E99.89596
G0 F6000 X110.88 Y116.82
G1 F2400 X110.24 Y116.18 E99.90183
G0 F6000 X109.67 Y116.18
G1 F2400 X110.31 Y116.82 E99.90770
G0 F6000 X109.75 Y116.82
G1 F2400 X109.11 Y116.18 E99.91357
G0 F6000 X108.54 Y116.18
G1 F2400 X109.18 Y116.82 E99.91944
G0 F6000 X108.62 Y116.82
G1 F2400 X107.98 Y116.18 E99.92531
G0 F6000 X107.41 Y116.18
G1 F2400 X108.05 Y116.82 E99.93118
G0 F6000 X107.48 Y116.82
G1 F2400 X106.84 Y116.18 E99.93706
G0 F6000 X106.28 Y116.18
G1 F2400 X106.92 Y116.82 E99.94293
G0 F6000 X106.35 Y116.82
G1 F2400 X105.71 Y116.18 E99.94880
G0 F6000 X105.15 Y116.18
G1 F2400 X105.79 Y116.82 E99.95467
G0 F6000 X105.22 Y116.82
G1 F2400 X104.58 Y116.18 E99.96054
G0 F6000 X104.02 Y116.18
G1 F2400 X104.66 Y116.82 E99.96642
G0 F6000 X104.09 Y116.82
G1 F2400 X103.45 Y116.18 E99.97229
G0 F6000 X102.89 Y116.18
G1 F2400 X103.53 Y116.82 E99.97816
G0 F6000 X102.96 Y116.82
G1 F2400 X102.32 Y116.18 E99.98403
G0 F6000 X101.75 Y116.18
G1 F2400 X102.39 Y116.82 E99.98990
G0 F6000 X101.83 Y116.82
G1 F2400 X101.19 Y116.18 E99.99577
G0 F6000 X100.62 Y116.18
G1 F2400 X101.26 Y116.82 E100.00163
G0 F6000 X100.70 Y116.82
G1 F2400 X100.06 Y116.18 E100.00750
G0 F6000 X99.49 Y116.18
G1 F2400 X100.13 Y116.82 E100.01337
G0 F6000 X99.56 Y116.82
G1 F2400 X98.93 Y116.18 E100.01924
G0 F6000 X98.36 Y116.18
G1 F2400 X99.00 Y116.82 E100.02511
G0 F6000 X98.43 Y116.82
G1 F2400 X97.79 Y116.18 E100.03098
G0 F6000 X97.23 Y116.18
G1 F2400 X97.87 Y116.82 E100.03684
G0 F6000 X97.30 Y116.82
G1 F2400 X96.66 Y116.18 E100.04271
G0 F6000 X96.10 Y116.18
G1 F2400 X96.74 Y116.82 E100.04858
G0 F6000 X96.17 Y116.82
G1 F2400 X95.53 Y116.18 E100.05445
G0 F6000 X94.97 Y116.18
G1 F2400 X95.61 Y116.82 E100.06032
G0 F6000 X95.04 Y116.82
G1 F2400 X94.40 Y116.18 E100.06619
G0 F6000 X93.83 Y116.18
G1 F2400 X94.47 Y116.82 E100.07206
G0 F6000 X93.91 Y116.82
G1 F2400 X93.27 Y116.18 E100.07793
G0 F6000 X92.70 Y116.18
G1 F2400 X93.34 Y116.82 E100.08380
G0 F6000 X92.78 Y116.82
G1 F2400 X92.14 Y116.18 E100.08966
G0 F6000 X91.57 Y116.18
G1 F2400 X92.21 Y116.82 E100.09553
G0 F6000 X91.64 Y116.82
G1 F2400 X91.01 Y116.18 E100.10140
G0 F6000 X90.44 Y116.18
G1 F2400 X91.08 Y116.82 E100.10726
G0 F6000 X90.51 Y116.82
G1 F2400 X89.88 Y116.18 E100.11313
G0 F6000 X89.31 Y116.18
G1 F2400 X89.95 Y116.82 E100.11900
G0 F6000 X89.38 Y116.82
G1 F2400 X84.18 Y111.62 E100.16679
G0 F6000 X84.18 Y111.05
G1 F2400 X89.12 Y115.99 E100.21216
G0 F6000 X89.12 Y115.42
G1 F2400 X84.18 Y110.48 E100.25754
G0 F6000 X84.18 Y109.92
G1 F2400 X89.12 Y114.86 E100.30292
G0 F6000 X89.12 Y114.29
G1 F2400 X84.18 Y109.35 E100.34829
G0 F6000 X84.18 Y108.79
G1 F2400 X89.12 Y113.73 E100.39367
G0 F6000 X89.12 Y113.16
G1 F2400 X84.18 Y108.22 E100.43905
G0 F6000 X84.18 Y107.66
G1 F2400 X89.12 Y112.60 E100.48442
G0 F6000 X89.12 Y112.03
G1 F2400 X84.18 Y107.09 E100.52980
G0 F6000 X84.18 Y106.53
G1 F2400 X89.12 Y111.47 E100.57518
G0 F6000 X89.12 Y110.90
G1 F2400 X84.18 Y105.96 E100.62056
G0 F6000 X84.18 Y105.39
G1 F2400 X89.12 Y110.33 E100.66594
G0 F6000 X89.12 Y109.77
G1 F2400 X84.18 Y104.83 E100.71132
G0 F6000 X84.18 Y104.26
G1 F2400 X89.12 Y109.20 E100.75670
G0 F6000 X89.12 Y108.64
G1 F2400 X84.18 Y103.70 E100.80207
G0 F6000 X84.18 Y103.13
G1 F2400 X89.12 Y108.07 E100.84745
G0 F6000 X89.12 Y107.50
G1 F2400 X84.18 Y102.56 E100.89283
G0 F6000 X84.18 Y102.00
G1 F2400 X89.12 Y106.94 E100.93821
G0 F6000 X89.12 Y106.37
G1 F2400 X84.18 Y101.43 E100.98359
G0 F6000 X84.18 Y100.87
G1 F2400 X89.12 Y105.81 E101.02897
G0 F6000 X89.12 Y105.24
G1 F2400 X84.18 Y100.30 E101.07434
G0 F6000 X84.18 Y99.74
G1 F2400 X89.12 Y104.68 E101.11972
G0 F6000 X89.12 Y104.11
G1 F2400 X84.18 Y99.17 E101.16510
G0 F6000 X84.18 Y98.61
G1 F2400 X89.12 Y103.55 E101.21047
G0 F6000 X89.12 Y102.98
G1 F2400 X84.18 Y98.04 E101.25585
G0 F6000 X84.18 Y97.47
G1 F2400 X89.12 Y102.41 E101.30123
G0 F6000 X89.12 Y101.85
G1 F2400 X84.18 Y96.91 E101.34661
G0 F6000 X84.18 Y96.34
G1 F2400 X89.12 Y101.28 E101.39199
G0 F6000 X89.12 Y100.72
G1 F2400 X84.18 Y95.78 E101.43737
G0 F6000 X84.18 Y95.21
G1 F2400 X89.12 Y100.15 E101.48275
G0 F6000 X89.12 Y99.59
G1 F2400 X84.18 Y94.65 E101.52812
G0 F6000 X84.18 Y94.08
G1 F2400 X89.12 Y99.02 E101.57350
G0 F6000 X89.12 Y98.45
G1 F2400 X84.18 Y93.51 E101.61888
G0 F6000 X84.18 Y92.95
G1 F2400 X89.12 Y97.89 E101.66426
G0 F6000 X89.12 Y97.32
G1 F2400 X84.18 Y92.38 E101.70964
G0 F6000 X84.18 Y91.82
G1 F2400 X89.12 Y96.76 E101.75502
G0 F6000 X89.12 Y96.19
G1 F2400 X84.18 Y91.25 E101.80039
G0 F6000 X84.18 Y90.69
G1 F2400 X89.12 Y95.63 E101.84577
G0 F6000 X89.12 Y95.06
G1 F2400 X84.18 Y90.12 E101.89115
G0 F6000 X84.18 Y89.56
G1 F2400 X89.12 Y94.49 E101.93652
G0 F6000 X89.12 Y93.93
G1 F2400 X84.18 Y88.99 E101.98190
G0 F6000 X84.18 Y88.42
G1 F2400 X89.12 Y93.36 E102.02728
G0 F6000 X89.12 Y92.80
G1 F2400 X84.50 Y88.18 E102.06970
G0 F6000 X85.07 Y88.18
G1 F2400 X89.12 Y92.23 E102.10692
G0 F6000 X89.12 Y91.67
G1 F2400 X85.63 Y88.18 E102.13894
G0 F6000 X86.20 Y88.18
G1 F2400 X89.12 Y91.10 E102.16577
G0 F6000 X89.12 Y90.53
G1 F2400 X86.77 Y88.18 E102.18740
G0 F6000 X87.33 Y88.18
G1 F2400 X89.12 Y89.97 E102.20383
G0 F6000 X89.12 Y89.40
G1 F2400 X87.90 Y88.18 E102.21507
G0 F6000 X88.46 Y88.18
G1 F2400 X89.12 Y88.84 E102.22111
G0 F6000 X89.67 Y88.82
G1 F2400 X89.03 Y88.18 E102.22699
G0 F6000 X89.59 Y88.18
G1 F2400 X90.23 Y88.82 E102.23286
G0 F6000 X90.80 Y88.82
G1 F2400 X90.16 Y88.18 E102.23873
G0 F6000 X90.73 Y88.18
G1 F2400 X91.36 Y88.82 E102.24460
G0 F6000 X91.93 Y88.82
G1 F2400 X91.29 Y88.18 E102.25047
G0 F6000 X91.86 Y88.18
G1 F2400 X92.50 Y88.82 E102.25634
G0 F6000 X93.06 Y88.82
G1 F2400 X92.42 Y88.18 E102.26221
G0 F6000 X92.99 Y88.18
G1 F2400 X93.63 Y88.82 E102.26808
G0 F6000 X94.19 Y88.82
G1 F2400 X93.55 Y88.18 E102.27395
G0 F6000 X94.12 Y88.18
G1 F2400 X94.76 Y88.82 E102.27982
G0 F6000 X95.33 Y88.82
G1 F2400 X94.69 Y88.18 E102.28570
G0 F6000 X95.25 Y88.18
G1 F2400 X95.89 Y88.82 E102.29157
G0 F6000 X96.46 Y88.82
G1 F2400 X95.82 Y88.18 E102.29744
G0 F6000 X96.38 Y88.18
G1 F2400 X97.02 Y88.82 E102.30331
G0 F6000 X97.59 Y88.82
G1 F2400 X96.95 Y88.18 E102.30919
G0 F6000 X97.51 Y88.18
G1 F2400 X98.15 Y88.82 E102.31506
G0 F6000 X98.72 Y88.82
G1 F2400 X98.08 Y88.18 E102.32093
G0 F6000 X98.64 Y88.18
G1 F2400 X99.28 Y88.82 E102.32680
G0 F6000 X99.85 Y88.82
G1 F2400 X99.21 Y88.18 E102.33267
G0 F6000 X99.78 Y88.18
G1 F2400 X100.42 Y88.82 E102.33854
G0 F6000 X100.98 Y88.82
G1 F2400 X100.34 Y88.18 E102.34441
G0 F6000 X100.91 Y88.18
G1 F2400 X101.55 Y88.82 E102.35028
G0 F6000 X102.11 Y88.82
G1 F2400 X101.47 Y88.18 E102.35615
G0 F6000 X102.04 Y88.18
G1 F2400 X102.68 Y88.82 E102.36202
G0 F6000 X103.24 Y88.82
G1 F2400 X102.61 Y88.18 E102.36789
G0 F6000 X103.17 Y88.18
G1 F2400 X103.81 Y88.82 E102.37376
G0 F6000 X104.38 Y88.82
G1 F2400 X103.74 Y88.18 E102.37964
G0 F6000 X104.30 Y88.18
G1 F2400 X104.94 Y88.82 E102.38551
G0 F6000 X105.51 Y88.82
G1 F2400 X104.87 Y88.18 E102.39138
G0 F6000 X105.43 Y88.18
G1 F2400 X106.07 Y88.82 E102.39726
G0 F6000 X106.64 Y88.82
G1 F2400 X106.00 Y88.18 E102.40313
G0 F6000 X106.56 Y88.18
G1 F2400 X107.20 Y88.82 E102.40900
G0 F6000 X107.77 Y88.82
G1 F2400 X107.13 Y88.18 E102.41487
G0 F6000 X107.70 Y88.18
G1 F2400 X108.33 Y88.82 E102.42074
G0 F6000 X108.90 Y88.82
G1 F2400 X108.26 Y88.18 E102.42661
G0 F6000 X108.83 Y88.18
G1 F2400 X109.47 Y88.82 E102.43249
G0 F6000 X110.03 Y88.82
G1 F2400 X109.39 Y88.18 E102.43836
G0 F6000 X109.96 Y88.18
G1 F2400 X110.60 Y88.82 E102.44423
G0 F6000 X111.16 Y88.82
G1 F2400 X110.53 Y88.18 E102.45010
G0 F6000 X111.09 Y88.18
G1 F2400 X111.73 Y88.82 E102.45597
G0 F6000 X112.30 Y88.82
G1 F2400 X111.66 Y88.18 E102.46184
G0 F6000 X112.22 Y88.18
G1 F2400 X112.86 Y88.82 E102.46771
G0 F6000 X113.43 Y88.82
G1 F2400 X112.79 Y88.18 E102.47358
G0 F6000 X113.35 Y88.18
G1 F2400 X113.99 Y88.82 E102.47945
G0 F6000 X114.56 Y88.82
G1 F2400 X113.92 Y88.18 E102.48532
G0 F6000 X114.48 Y88.18
G1 F2400 X115.12 Y88.82 E102.49120
G0 F6000 X115.69 Y88.82
G1 F2400 X115.05 Y88.18 E102.49707
G0 F6000 X115.62 Y88.18
G1 F2400 X120.82 Y93.38 E102.54488
G0 F6000 X120.82 Y92.82
G1 F2400 X116.18 Y88.18 E102.58749
G0 F6000 X116.75 Y88.18
G1 F2400 X120.82 Y92.25 E102.62491
G0 F6000 X120.82 Y91.69
G1 F2400 X117.31 Y88.18 E102.65713
G0 F6000 X117.88 Y88.18
G1 F2400 X120.82 Y91.12 E102.68416
G0 F6000 X120.82 Y90.56
G1 F2400 X118.44 Y88.18 E102.70599
G0 F6000 X119.01 Y88.18
G1 F2400 X120.82 Y89.99 E102.72261
G0 F6000 X120.82 Y89.42
G1 F2400 X119.58 Y88.18 E102.73405
G0 F6000 X120.14 Y88.18
G1 F2400 X120.82 Y88.86 E102.74029
G0 F6000 X120.82 Y88.29
G1 F2400 X120.71 Y88.18 E102.74132
G0 F6000 X115.88 Y89.01
G1 F2400 X120.82 Y93.95 E102.78672
G0 F6000 X120.82 Y94.52
G1 F2400 X115.88 Y89.57 E102.83211
G0 F6000 X115.88 Y90.14
G1 F2400 X120.82 Y95.08 E102.87751
G0 F6000 X120.82 Y95.65
G1 F2400 X115.88 Y90.71 E102.92290
G0 F6000 X115.88 Y91.27
G1 F2400 X120.82 Y96.21 E102.96830
G0 F6000 X120.82 Y96.78
G1 F2400 X115.88 Y91.84 E103.01369
G0 F6000 X115.88 Y92.40
G1 F2400 X120.82 Y97.34 E103.05908
G0 F6000 X120.82 Y97.91
G1 F2400 X115.88 Y92.97 E103.10448
G0 F6000 X115.88 Y93.53
G1 F2400 X120.82 Y98.47 E103.14987
G0 F6000 X120.82 Y99.04
G1 F2400 X115.88 Y94.10 E103.19526
G0 F6000 X115.88 Y94.67
G1 F2400 X120.82 Y99.61 E103.24065
G0 F6000 X120.82 Y100.17
G1 F2400 X115.88 Y95.23 E103.28605
G0 F6000 X115.88 Y95.80
G1 F2400 X120.82 Y100.74 E103.33144
G0 F6000 X120.82 Y101.30
G1 F2400 X115.88 Y96.36 E103.37683
G0 F6000 X115.88 Y96.93
G1 F2400 X120.82 Y101.87 E103.42223
G0 F6000 X120.82 Y102.44
G1 F2400 X115.88 Y97.49 E103.46762
G0 F6000 X115.88 Y98.06
G1 F2400 X120.82 Y103.00 E103.51301
G0 F6000 X120.82 Y103.57
G1 F2400 X115.88 Y98.62 E103.55841
G0 F6000 X115.88 Y99.19
G1 F2400 X120.82 Y104.13 E103.60380
G0 F6000 X120.82 Y104.70
G1 F2400 X115.88 Y99.76 E103.64920
G0 F6000 X115.88 Y100.32
G1 F2400 X120.82 Y105.26 E103.69459
G0 F6000 X120.82 Y105.83
G1 F2400 X115.88 Y100.89 E103.73999
G0 F6000 X115.88 Y101.45
G1 F2400 X120.82 Y106.39 E103.78538
G0 F6000 X120.82 Y106.96
G1 F2400 X115.88 Y102.02 E103.83078
G0 F6000 X115.88 Y102.58
G1 F2400 X120.82 Y107.53 E103.87617
G0 F6000 X120.82 Y108.09
G1 F2400 X115.88 Y103.15 E103.92156
G0 F6000 X115.88 Y103.72
G1 F2400 X120.82 Y108.66 E103.96695
G0 F6000 X120.82 Y109.22
G1 F2400 X115.88 Y104.28 E104.01234
G0 F6000 X115.88 Y104.85
G1 F2400 X120.82 Y109.79 E104.05774
G0 F6000 X120.82 Y110.36
G1 F2400 X115.88 Y105.41 E104.10313
G0 F6000 X115.88 Y105.98
G1 F2400 X120.82 Y110.92 E104.14853
G0 F6000 X120.82 Y111.49
G1 F2400 X115.88 Y106.55 E104.19392
G0 F6000 X115.88 Y107.11
G1 F2400 X120.82 Y112.05 E104.23931
G0 F6000 X120.82 Y112.62
G1 F2400 X115.88 Y107.68 E104.28471
G0 F6000 X115.88 Y108.24
G1 F2400 X120.82 Y113.18 E104.33010
G0 F6000 X120.82 Y113.75
G1 F2400 X115.88 Y108.81 E104.37549
G0 F6000 X115.88 Y109.37
G1 F2400 X120.82 Y114.31 E104.42089
G0 F6000 X120.82 Y114.88
G1 F2400 X115.88 Y109.94 E104.46628
G0 F6000 X115.88 Y110.50
G1 F2400 X120.82 Y115.45 E104.51168
G0 F6000 X120.82 Y116.01
G1 F2400 X115.88 Y111.07 E104.55707
G0 F6000 X115.74 Y116.04
G0 X88.82 Y116.82
G1 F2400 X84.18 Y112.18 E104.59966
G0 F6000 X84.18 Y112.75
G1 F2400 X88.25 Y116.82 E104.63705
G0 F6000 X87.69 Y116.82
G1 F2400 X84.18 Y113.31 E104.66925
G0 F6000 X84.18 Y113.88
G1 F2400 X87.12 Y116.82 E104.69624
G0 F6000 X86.55 Y116.82
G1 F2400 X84.18 Y114.44 E104.71804
G0 F6000 X84.18 Y115.01
G1 F2400 X85.99 Y116.82 E104.73465
G0 F6000 X85.42 Y116.82
G1 F2400 X84.18 Y115.58 E104.74605
G0 F6000 X84.18 Y116.14
G1 F2400 X84.86 Y116.82 E104.75226
G0 F6000 X84.29 Y116.82
G1 F2400 X84.18 Y116.71 E104.75328
G1 F1800 E97.25328
G1 Z0.97
G0 F6000 X124.64 Y110.52
;TYPE:SUPPORT
G1 Z0.90
G1 F1800 E104.75328
G1 F2400 X124.64 Y94.48 E104.85748
G0 F6000 X125.97 Y94.48
G1 F2400 X125.97 Y110.52 E104.96167
G0 F6000 X127.30 Y110.52
G1 F2400 X127.30 Y103.88 E105.00480
G0 F6000 X128.63 Y104.28
G1 F2400 X128.63 Y110.52 E105.04537
G0 F6000 X129.97 Y110.45
G1 F2400 X129.97 Y103.34 E105.09156
G0 F6000 X130.12 Y103.49
G0 X130.49 Y103.05
G0 X130.49 Y101.75
G0 X130.12 Y101.31
G0 X129.97 Y101.46
G1 F2400 X129.97 Y94.48 E105.13693
G0 F6000 X128.63 Y94.48
G1 F2400 X128.63 Y100.68 E105.17723
G0 F6000 X127.30 Y100.92
G1 F2400 X127.30 Y94.48 E105.21907
G0 F6000 X127.30 Y94.70
G0 X131.23 Y95.01
G0 X131.30 Y94.80
G1 F2400 X131.30 Y110.00 E105.31782
G0 F6000 X132.63 Y109.35
G1 F2400 X132.63 Y95.45 E105.40816
G0 F6000 X132.53 Y95.64
G0 X133.81 Y96.52
G0 X133.97 Y96.37
G1 F2400 X133.97 Y108.52 E105.48711
G0 F6000 X133.97 Y108.30
G0 X135.12 Y106.77
G0 X135.30 Y106.90
G1 F2400 X135.30 Y97.70 E105.54687
G1 F1800 E98.04687
G1 Z0.97
G0 F6000 X80.65 Y94.48
G1 Z0.90
G1 F1800 E105.54687
G1 F2400 X80.65 Y110.52 E105.65107
G0 F6000 X79.31 Y110.52
G1 F2400 X79.31 Y94.48 E105.75527
G0 F6000 X77.98 Y94.48
G1 F2400 X77.98 Y101.48 E105.80072
G0 F6000 X78.14 Y101.32
G0 X77.87 Y100.63
G0 X77.38 Y100.36
G0 X76.64 Y100.47
G0 X76.65 Y100.69
G1 F2400 X76.65 Y94.48 E105.84109
G0 F6000 X75.31 Y94.48
G1 F2400 X75.31 Y100.91 E105.88288
G0 F6000 X75.22 Y100.72
G0 X74.42 Y101.75
G0 X74.62 Y103.45
G0 X75.22 Y104.08
G0 X75.31 Y103.89
G1 F2400 X75.31 Y110.35 E105.92487
G0 F6000 X76.65 Y110.52
G1 F2400 X76.65 Y104.28 E105.96542
G0 F6000 X76.59 Y104.49
G0 X77.87 Y104.17
G0 X78.14 Y103.48
G0 X77.98 Y103.32
G1 F2400 X77.98 Y110.52 E106.01217
G0 F6000 X77.98 Y110.30
G0 X74.05 Y109.79
G0 X73.98 Y110.00
G1 F2400 X73.98 Y94.80 E106.11086
G0 F6000 X72.65 Y95.45
G1 F2400 X72.65 Y109.34 E106.20109
G0 F6000 X72.80 Y109.19
G0 X71.41 Y108.38
G0 X71.31 Y108.58
G1 F2400 X71.31 Y96.22 E106.28133
G0 F6000 X69.98 Y96.89
G1 F2400 X69.98 Y107.91 E106.35293
G0 F6000 X70.15 Y107.75
G0 X70.08 Y106.75
G0 X68.80 Y104.79
G0 X68.65 Y104.95
G1 F2400 X68.65 Y99.85 E106.38601
;LAYER:5
G1 F1800 E98.88601
G1 Z0.97
G0 F6000 X84.10 Y88.10 Z1.00
;TYPE:WALL-INNER
G1 Z1.00
G1 F1800 E106.38601
G1 F2400 X120.90 Y88.10 E106.62506
G1 X120.90 Y116.90 E106.81215
G1 X84.10 Y116.90 E107.05121
G1 X84.10 Y88.10 E107.23828
G0 F6000 X89.20 Y88.90
G1 F2400 X89.20 Y116.10 E107.41497
G1 X115.80 Y116.10 E107.58776
G1 X115.80 Y88.90 E107.76446
G1 X89.20 Y88.90 E107.93725
G0 F6000 X89.60 Y89.30
;TYPE:WALL-OUTER
G1 F2400 X89.60 Y115.70 E108.10874
G1 X115.40 Y115.70 E108.27633
G1 X115.40 Y89.30 E108.44783
G1 X89.60 Y89.30 E108.61542
G0 F6000 X89.30 Y89.30
G0 X84.00 Y87.91
G0 X83.70 Y87.70
G1 F2400 X121.30 Y87.70 E108.85968
G1 X121.30 Y117.30 E109.05196
G1 X83.70 Y117.30 E109.29622
G1 X83.70 Y87.70 E109.48849
G0 F6000 X84.18 Y88.35
;TYPE:FILL
G1 F2400 X84.35 Y88.18 E109.49007
G0 F6000 X85.35 Y88.18
G1 F2400 X89.12 Y91.95 E109.52469
G0 F6000 X89.12 Y94.73
G1 F2400 X84.18 Y99.67 E109.57006
G0 F6000 X84.18 Y98.32
G1 F2400 X89.12 Y103.26 E109.61544
G0 F6000 X89.12 Y106.04
G1 F2400 X84.18 Y110.98 E109.66082
G0 F6000 X84.18 Y109.64
G1 F2400 X89.12 Y114.58 E109.70619
G0 F6000 X89.26 Y116.04
G0 X90.30 Y116.18
G1 F2400 X89.66 Y116.82 E109.71207
G0 F6000 X90.72 Y116.18
G1 F2400 X91.36 Y116.82 E109.71794
G0 F6000 X95.31 Y116.82
G1 F2400 X95.95 Y116.18 E109.72381
G0 F6000 X96.38 Y116.18
G1 F2400 X97.02 Y116.82 E109.72968
G0 F6000 X100.97 Y116.82
G1 F2400 X101.61 Y116.18 E109.73556
G0 F6000 X102.04 Y116.18
G1 F2400 X102.68 Y116.82 E109.74143
G0 F6000 X106.63 Y116.82
G1 F2400 X107.27 Y116.18 E109.74731
G0 F6000 X107.69 Y116.18
G1 F2400 X108.33 Y116.82 E109.75318
G0 F6000 X112.28 Y116.82
G1 F2400 X112.92 Y116.18 E109.75906
G0 F6000 X113.35 Y116.18
G1 F2400 X113.99 Y116.82 E109.76493
G0 F6000 X117.94 Y116.82
G1 F2400 X120.82 Y113.94 E109.79140
G0 F6000 X120.82 Y112.33
G1 F2400 X115.88 Y107.39 E109.83680
G0 F6000 X115.88 Y107.56
G1 F2400 X120.82 Y102.62 E109.88218
G0 F6000 X120.82 Y101.02
G1 F2400 X115.88 Y96.08 E109.92758
G0 F6000 X115.88 Y96.25
G1 F2400 X120.82 Y91.31 E109.97297
G0 F6000 X120.82 Y89.71
G1 F2400 X119.29 Y88.18 E109.98700
G0 F6000 X118.29 Y88.18
G1 F2400 X115.88 Y90.59 E110.00918
G0 F6000 X115.88 Y90.42
G1 F2400 X120.82 Y95.36 E110.05458
G0 F6000 X120.82 Y96.97
G1 F2400 X115.88 Y101.91 E110.09996
G0 F6000 X115.88 Y101.74
G1 F2400 X120.82 Y106.68 E110.14536
G0 F6000 X120.82 Y108.28
G1 F2400 X115.88 Y113.22 E110.19074
G0 F6000 X115.88 Y113.05
G1 F2400 X119.65 Y116.82 E110.22536
G0 F6000 X115.74 Y88.96
G0 X114.28 Y88.82
G1 F2400 X113.64 Y88.18 E110.23123
G0 F6000 X112.64 Y88.18
G1 F2400 X112.00 Y88.82 E110.23711
G0 F6000 X108.62 Y88.82
G1 F2400 X107.98 Y88.18 E110.24298
G0 F6000 X106.98 Y88.18
G1 F2400 X106.34 Y88.82 E110.24886
G0 F6000 X102.96 Y88.82
G1 F2400 X102.32 Y88.18 E110.25473
G0 F6000 X101.32 Y88.18
G1 F2400 X100.68 Y88.82 E110.26061
G0 F6000 X97.30 Y88.82
G1 F2400 X96.67 Y88.18 E110.26648
G0 F6000 X95.67 Y88.18
G1 F2400 X95.03 Y88.82 E110.27236
G0 F6000 X91.65 Y88.82
G1 F2400 X91.01 Y88.18 E110.27824
G0 F6000 X90.01 Y88.18
G1 F2400 X89.37 Y88.82 E110.28412
G0 F6000 X89.12 Y89.07
G1 F2400 X84.18 Y94.01 E110.32949
G0 F6000 X84.18 Y92.67
G1 F2400 X89.12 Y97.61 E110.37487
G0 F6000 X89.12 Y100.38
G1 F2400 X84.18 Y105.32 E110.42024
G0 F6000 X84.18 Y103.98
G1 F2400 X89.12 Y108.92 E110.46562
G0 F6000 X89.12 Y111.70
G1 F2400 X84.18 Y116.64 E110.51099
G0 F6000 X84.18 Y115.29
G1 F2400 X85.70 Y116.82 E110.52500
G1 F1800 E103.02500
G1 Z1.07
G0 F6000 X80.65 Y110.52
;TYPE:SUPPORT
G1 Z1.00
G1 F1800 E110.52500
G1 F2400 X80.65 Y94.48 E110.62919
G0 F6000 X79.31 Y94.48
G1 F2400 X79.31 Y110.52 E110.73339
G0 F6000 X77.98 Y110.52
G1 F2400 X77.98 Y103.32 E110.78014
G0 F6000 X78.14 Y103.48
G0 X77.87 Y104.17
G0 X76.59 Y104.49
G0 X76.65 Y104.28
G1 F2400 X76.65 Y110.52 E110.82069
G0 F6000 X75.31 Y110.35
G1 F2400 X75.31 Y103.89 E110.86268
G0 F6000 X75.22 Y104.08
G0 X74.42 Y103.05
G0 X74.62 Y101.35
G0 X75.22 Y100.72
G0 X75.31 Y100.91
G1 F2400 X75.31 Y94.48 E110.90447
G0 F6000 X76.65 Y94.48
G1 F2400 X76.65 Y100.69 E110.94485
G0 F6000 X76.64 Y100.47
G0 X77.38 Y100.36
G0 X78.08 Y100.95
G0 X78.14 Y101.32
G0 X77.98 Y101.48
G1 F2400 X77.98 Y94.48 E110.99030
G0 F6000 X77.98 Y94.70
G0 X74.05 Y95.01
G0 X73.98 Y94.80
G1 F2400 X73.98 Y110.00 E111.08898
G0 F6000 X72.65 Y109.34
G1 F2400 X72.65 Y95.45 E111.17921
G0 F6000 X72.80 Y95.61
G0 X71.41 Y96.42
G0 X71.31 Y96.22
G1 F2400 X71.31 Y108.58 E111.25946
G0 F6000 X69.98 Y107.91
G1 F2400 X69.98 Y96.89 E111.33105
G0 F6000 X70.15 Y97.05
G0 X70.08 Y98.05
G0 X68.80 Y100.01
G0 X68.65 Y99.85
G1 F2400 X68.65 Y104.95 E111.36413
G1 F1800 E103.86413
G1 Z1.07
G0 F6000 X124.64 Y110.52
G1 Z1.00
G1 F1800 E111.36413
G1 F2400 X124.64 Y94.48 E111.46833
G0 F6000 X125.97 Y94.48
G1 F2400 X125.97 Y110.52 E111.57253
G0 F6000 X127.30 Y110.52
G1 F2400 X127.30 Y103.88 E111.61566
G0 F6000 X128.63 Y104.28
G1 F2400 X128.63 Y110.52 E111.65622
G0 F6000 X129.97 Y110.45
G1 F2400 X129.97 Y103.34 E111.70242
G0 F6000 X130.12 Y103.49
G0 X130.49 Y103.05
G0 X130.49 Y101.75
G0 X130.12 Y101.31
G0 X129.97 Y101.46
G1 F2400 X129.97 Y94.48 E111.74779
G0 F6000 X128.63 Y94.48
G1 F2400 X128.63 Y100.68 E111.78809
G0 F6000 X127.30 Y100.92
G1 F2400 X127.30 Y94.48 E111.82992
G0 F6000 X127.30 Y94.70
G0 X131.23 Y95.01
G0 X131.30 Y94.80
G1 F2400 X131.30 Y110.00 E111.92867
G0 F6000 X132.63 Y109.35
G1 F2400 X132.63 Y95.45 E112.01902
G0 F6000 X132.53 Y95.64
G0 X133.81 Y96.52
G0 X133.97 Y96.37
G1 F2400 X133.97 Y108.52 E112.09797
G0 F6000 X133.97 Y108.30
G0 X135.12 Y106.77
G0 X135.30 Y106.90
G1 F2400 X135.30 Y97.70 E112.15772
;LAYER:6
G1 F1800 E104.65772
G1 Z1.07
G0 F6000 X120.90 Y88.10 Z1.10
;TYPE:WALL-INNER
G1 Z1.10
G1 F1800 E112.15772
G1 F2400 X120.90 Y116.90 E112.34481
G1 X84.10 Y116.90 E112.58387
G1 X84.10 Y88.10 E112.77094
G1 X120.90 Y88.10 E113.01000
G0 F6000 X115.80 Y88.90
G1 F2400 X89.20 Y88.90 E113.18279
G1 X89.20 Y116.10 E113.35948
G1 X115.80 Y116.10 E113.53227
G1 X115.80 Y88.90 E113.70897
G0 F6000 X115.40 Y89.30
;TYPE:WALL-OUTER
G1 F2400 X89.60 Y89.30 E113.87656
G1 X89.60 Y115.70 E114.04805
G1 X115.40 Y115.70 E114.21564
G1 X115.40 Y89.30 E114.38714
G0 F6000 X115.40 Y89.00
G0 X121.00 Y87.91
G0 X121.30 Y87.70
G1 F2400 X121.30 Y117.30 E114.57943
G1 X83.70 Y117.30 E114.82368
G1 X83.70 Y87.70 E115.01595
G1 X121.30 Y87.70 E115.26021
G0 F6000 X121.00 Y87.91
G0 X120.82 Y89.71
;TYPE:FILL
G1 F2400 X119.29 Y88.18 E115.27423
G0 F6000 X118.29 Y88.18
G1 F2400 X115.88 Y90.59 E115.29642
G0 F6000 X115.88 Y90.42
G1 F2400 X120.82 Y95.36 E115.34181
G0 F6000 X120.82 Y96.97
G1 F2400 X115.88 Y101.91 E115.38720
G0 F6000 X115.88 Y101.74
G1 F2400 X120.82 Y106.68 E115.43259
G0 F6000 X120.82 Y108.28
G1 F2400 X115.88 Y113.22 E115.47798
G0 F6000 X115.88 Y113.05
G1 F2400 X119.65 Y116.82 E115.51260
G0 F6000 X117.94 Y116.82
G1 F2400 X120.82 Y113.94 E115.53907
G0 F6000 X120.82 Y112.33
G1 F2400 X115.88 Y107.39 E115.58446
G0 F6000 X115.88 Y107.56
G1 F2400 X120.82 Y102.62 E115.62985
G0 F6000 X120.82 Y101.02
G1 F2400 X115.88 Y96.08 E115.67524
G0 F6000 X115.88 Y96.25
G1 F2400 X120.82 Y91.31 E115.72064
G0 F6000 X115.74 Y88.96
G0 X114.28 Y88.82
G1 F2400 X113.64 Y88.18 E115.72651
G0 F6000 X112.64 Y88.18
G1 F2400 X112.00 Y88.82 E115.73239
G0 F6000 X108.62 Y88.82
G1 F2400 X107.98 Y88.18 E115.73826
G0 F6000 X106.98 Y88.18
G1 F2400 X106.34 Y88.82 E115.74414
G0 F6000 X102.96 Y88.82
G1 F2400 X102.32 Y88.18 E115.75001
G0 F6000 X101.32 Y88.18
G1 F2400 X100.68 Y88.82 E115.75589
G0 F6000 X97.30 Y88.82
G1 F2400 X96.67 Y88.18 E115.76176
G0 F6000 X95.67 Y88.18
G1 F2400 X95.03 Y88.82 E115.76764
G0 F6000 X91.65 Y88.82
G1 F2400 X91.01 Y88.18 E115.77351
G0 F6000 X90.01 Y88.18
G1 F2400 X89.37 Y88.82 E115.77939
G0 F6000 X89.12 Y89.07
G1 F2400 X84.18 Y94.01 E115.82476
G0 F6000 X84.18 Y92.67
G1 F2400 X89.12 Y97.61 E115.87014
G0 F6000 X89.12 Y100.38
G1 F2400 X84.18 Y105.32 E115.91552
G0 F6000 X84.18 Y103.98
G1 F2400 X89.12 Y108.92 E115.96089
G0 F6000 X89.12 Y111.70
G1 F2400 X84.18 Y116.64 E116.00627
G0 F6000 X84.18 Y115.29
G1 F2400 X85.70 Y116.82 E116.02027
G0 F6000 X89.66 Y116.82
G1 F2400 X90.30 Y116.18 E116.02615
G0 F6000 X90.72 Y116.18
G1 F2400 X91.36 Y116.82 E116.03202
G0 F6000 X89.26 Y116.04
G0 X89.12 Y114.58
G1 F2400 X84.18 Y109.64 E116.07739
G0 F6000 X84.18 Y110.98
G1 F2400 X89.12 Y106.04 E116.12277
G0 F6000 X89.12 Y103.26
G1 F2400 X84.18 Y98.32 E116.16815
G0 F6000 X84.18 Y99.67
G1 F2400 X89.12 Y94.73 E116.21352
G0 F6000 X89.12 Y91.95
G1 F2400 X85.35 Y88.18 E116.24814
G0 F6000 X84.35 Y88.18
G1 F2400 X84.18 Y88.35 E116.24972
G0 F6000 X89.26 Y116.04
G0 X95.95 Y116.18
G1 F2400 X95.31 Y116.82 E116.25559
G0 F6000 X96.38 Y116.18
G1 F2400 X97.02 Y116.82 E116.26146
G0 F6000 X100.97 Y116.82
G1 F2400 X101.61 Y116.18 E116.26734
G0 F6000 X102.04 Y116.18
G1 F2400 X102.68 Y116.82 E116.27321
G0 F6000 X106.63 Y116.82
G1 F2400 X107.27 Y116.18 E116.27909
G0 F6000 X107.69 Y116.18
G1 F2400 X108.33 Y116.82 E116.28496
G0 F6000 X112.28 Y116.82
G1 F2400 X112.92 Y116.18 E116.29084
G0 F6000 X113.35 Y116.18
G1 F2400 X113.99 Y116.82 E116.29671
G1 F1800 E108.79671
G1 Z1.18
G0 F6000 X124.64 Y110.52
;TYPE:SUPPORT
G1 Z1.10
G1 F1800 E116.29671
G1 F2400 X124.64 Y94.48 E116.40091
G0 F6000 X125.97 Y94.48
G1 F2400 X125.97 Y110.52 E116.50511
G0 F6000 X127.30 Y110.52
G1 F2400 X127.30 Y103.88 E116.54824
G0 F6000 X128.63 Y104.28
G1 F2400 X128.63 Y110.52 E116.58881
G0 F6000 X129.97 Y110.45
G1 F2400 X129.97 Y103.34 E116.63500
G0 F6000 X130.12 Y103.49
G0 X130.49 Y103.05
G0 X130.49 Y101.75
G0 X130.12 Y101.31
G0 X129.97 Y101.46
G1 F2400 X129.97 Y94.48 E116.68037
G0 F6000 X128.63 Y94.48
G1 F2400 X128.63 Y100.68 E116.72067
G0 F6000 X127.30 Y100.92
G1 F2400 X127.30 Y94.48 E116.76250
G0 F6000 X127.30 Y94.70
G0 X131.23 Y95.01
G0 X131.30 Y94.80
G1 F2400 X131.30 Y110.00 E116.86125
G0 F6000 X132.63 Y109.35
G1 F2400 X132.63 Y95.45 E116.95160
G0 F6000 X132.53 Y95.64
G0 X133.81 Y96.52
G0 X133.97 Y96.37
G1 F2400 X133.97 Y108.52 E117.03055
G0 F6000 X133.97 Y108.30
G0 X135.12 Y106.77
G0 X135.30 Y106.90
G1 F2400 X135.30 Y97.70 E117.09031
G1 F1800 E109.59031
G1 Z1.18
G0 F6000 X80.65 Y94.48
G1 Z1.10
G1 F1800 E117.09031
G1 F2400 X80.65 Y110.52 E117.19450
G0 F6000 X79.31 Y110.52
G1 F2400 X79.31 Y94.48 E117.29870
G0 F6000 X77.98 Y94.48
G1 F2400 X77.98 Y101.48 E117.34415
G0 F6000 X78.14 Y101.32
G0 X77.87 Y100.63
G0 X77.38 Y100.36
G0 X76.64 Y100.47
G0 X76.65 Y100.69
G1 F2400 X76.65 Y94.48 E117.38453
G0 F6000 X75.31 Y94.48
G1 F2400 X75.31 Y100.91 E117.42632
G0 F6000 X75.22 Y100.72
G0 X74.42 Y101.75
G0 X74.62 Y103.45
G0 X75.22 Y104.08
G0 X75.31 Y103.89
G1 F2400 X75.31 Y110.35 E117.46831
G0 F6000 X76.65 Y110.52
G1 F2400 X76.65 Y104.28 E117.50886
G0 F6000 X76.59 Y104.49
G0 X77.87 Y104.17
G0 X78.14 Y103.48
G0 X77.98 Y103.32
G1 F2400 X77.98 Y110.52 E117.55561
G0 F6000 X77.98 Y110.30
G0 X74.05 Y109.79
G0 X73.98 Y110.00
G1 F2400 X73.98 Y94.80 E117.65429
G0 F6000 X72.65 Y95.45
G1 F2400 X72.65 Y109.34 E117.74452
G0 F6000 X72.80 Y109.19
G0 X71.41 Y108.38
G0 X71.31 Y108.58
G1 F2400 X71.31 Y96.22 E117.82477
G0 F6000 X69.98 Y96.89
G1 F2400 X69.98 Y107.91 E117.89636
G0 F6000 X70.15 Y107.75
G0 X70.08 Y106.75
G0 X68.80 Y104.79
G0 X68.65 Y104.95
G1 F2400 X68.65 Y99.85 E117.92944
;LAYER:7
G1 F1800 E110.42944
G1 Z1.18
G0 F6000 X84.10 Y88.10 Z1.20
;TYPE:WALL-INNER
G1 Z1.20
G1 F1800 E117.92944
G1 F2400 X120.90 Y88.10 E118.16850
G1 X120.90 Y116.90 E118.35559
G1 X84.10 Y116.90 E118.59464
G1 X84.10 Y88.10 E118.78172
G0 F6000 X89.20 Y88.90
G1 F2400 X89.20 Y116.10 E118.95841
G1 X115.80 Y116.10 E119.13120
G1 X115.80 Y88.90 E119.30789
G1 X89.20 Y88.90 E119.48068
G0 F6000 X89.60 Y89.30
;TYPE:WALL-OUTER
G1 F2400 X89.60 Y115.70 E119.65217
G1 X115.40 Y115.70 E119.81977
G1 X115.40 Y89.30 E119.99126
G1 X89.60 Y89.30 E120.15886
G0 F6000 X89.30 Y89.30
G0 X84.00 Y87.91
G0 X83.70 Y87.70
G1 F2400 X121.30 Y87.70 E120.40311
G1 X121.30 Y117.30 E120.59540
G1 X83.70 Y117.30 E120.83965
G1 X83.70 Y87.70 E121.03192
G0 F6000 X84.18 Y88.35
;TYPE:FILL
G1 F2400 X84.35 Y88.18 E121.03350
G0 F6000 X85.35 Y88.18
G1 F2400 X89.12 Y91.95 E121.06812
G0 F6000 X89.12 Y94.73
G1 F2400 X84.18 Y99.67 E121.11350
G0 F6000 X84.18 Y98.32
G1 F2400 X89.12 Y103.26 E121.15888
G0 F6000 X89.12 Y106.04
G1 F2400 X84.18 Y110.98 E121.20425
G0 F6000 X84.18 Y109.64
G1 F2400 X89.12 Y114.58 E121.24963
G0 F6000 X89.26 Y116.04
G0 X90.30 Y116.18
G1 F2400 X89.66 Y116.82 E121.25551
G0 F6000 X90.72 Y116.18
G1 F2400 X91.36 Y116.82 E121.26138
G0 F6000 X95.31 Y116.82
G1 F2400 X95.95 Y116.18 E121.26725
G0 F6000 X96.38 Y116.18
G1 F2400 X97.02 Y116.82 E121.27312
G0 F6000 X100.97 Y116.82
G1 F2400 X101.61 Y116.18 E121.27899
G0 F6000 X102.04 Y116.18
G1 F2400 X102.68 Y116.82 E121.28486
G0 F6000 X106.63 Y116.82
G1 F2400 X107.27 Y116.18 E121.29074
G0 F6000 X107.69 Y116.18
G1 F2400 X108.33 Y116.82 E121.29661
G0 F6000 X112.28 Y116.82
G1 F2400 X112.92 Y116.18 E121.30250
G0 F6000 X113.35 Y116.18
G1 F2400 X113.99 Y116.82 E121.30837
G0 F6000 X117.94 Y116.82
G1 F2400 X120.82 Y113.94 E121.33483
G0 F6000 X120.82 Y112.33
G1 F2400 X115.88 Y107.39 E121.38023
G0 F6000 X115.88 Y107.56
G1 F2400 X120.82 Y102.62 E121.42562
G0 F6000 X120.82 Y101.02
G1 F2400 X115.88 Y96.08 E121.47101
G0 F6000 X115.88 Y96.25
G1 F2400 X120.82 Y91.31 E121.51640
G0 F6000 X120.82 Y89.71
G1 F2400 X119.29 Y88.18 E121.53043
G0 F6000 X118.29 Y88.18
G1 F2400 X115.88 Y90.59 E121.55262
G0 F6000 X115.88 Y90.42
G1 F2400 X120.82 Y95.36 E121.59801
G0 F6000 X120.82 Y96.97
G1 F2400 X115.88 Y101.91 E121.64340
G0 F6000 X115.88 Y101.74
G1 F2400 X120.82 Y106.68 E121.68879
G0 F6000 X120.82 Y108.28
G1 F2400 X115.88 Y113.22 E121.73418
G0 F6000 X115.88 Y113.05
G1 F2400 X119.65 Y116.82 E121.76880
G0 F6000 X115.74 Y88.96
G0 X114.28 Y88.82
G1 F2400 X113.64 Y88.18 E121.77467
G0 F6000 X112.64 Y88.18
G1 F2400 X112.00 Y88.82 E121.78055
G0 F6000 X108.62 Y88.82
G1 F2400 X107.98 Y88.18 E121.78642
G0 F6000 X106.98 Y88.18
G1 F2400 X106.34 Y88.82 E121.79230
G0 F6000 X102.96 Y88.82
G1 F2400 X102.32 Y88.18 E121.79817
G0 F6000 X101.32 Y88.18
G1 F2400 X100.68 Y88.82 E121.80405
G0 F6000 X97.30 Y88.82
G1 F2400 X96.67 Y88.18 E121.80992
G0 F6000 X95.67 Y88.18
G1 F2400 X95.03 Y88.82 E121.81580
G0 F6000 X91.65 Y88.82
G1 F2400 X91.01 Y88.18 E121.82167
G0 F6000 X90.01 Y88.18
G1 F2400 X89.37 Y88.82 E121.82755
G0 F6000 X89.12 Y89.07
G1 F2400 X84.18 Y94.01 E121.87293
G0 F6000 X84.18 Y92.67
G1 F2400 X89.12 Y97.61 E121.91830
G0 F6000 X89.12 Y100.38
G1 F2400 X84.18 Y105.32 E121.96368
G0 F6000 X84.18 Y103.98
G1 F2400 X89.12 Y108.92 E122.00905
G0 F6000 X89.12 Y111.70
G1 F2400 X84.18 Y116.64 E122.05443
G0 F6000 X84.18 Y115.29
G1 F2400 X85.70 Y116.82 E122.06843
G1 F1800 E114.56843
G1 Z1.27
G0 F6000 X80.65 Y110.52
;TYPE:SUPPORT
G1 Z1.20
G1 F1800 E122.06843
G1 F2400 X80.65 Y94.48 E122.17263
G0 F6000 X79.31 Y94.48
G1 F2400 X79.31 Y110.52 E122.27683
G0 F6000 X77.98 Y110.52
G1 F2400 X77.98 Y103.32 E122.32358
G0 F6000 X78.14 Y103.48
G0 X77.87 Y104.17
G0 X76.59 Y104.49
G0 X76.65 Y104.28
G1 F2400 X76.65 Y110.52 E122.36413
G0 F6000 X75.31 Y110.35
G1 F2400 X75.31 Y103.89 E122.40612
G0 F6000 X75.22 Y104.08
G0 X74.42 Y103.05
G0 X74.62 Y101.35
G0 X75.22 Y100.72
G0 X75.31 Y100.91
G1 F2400 X75.31 Y94.48 E122.44791
G0 F6000 X76.65 Y94.48
G1 F2400 X76.65 Y100.69 E122.48828
G0 F6000 X76.64 Y100.47
G0 X77.38 Y100.36
G0 X78.08 Y100.95
G0 X78.14 Y101.32
G0 X77.98 Y101.48
G1 F2400 X77.98 Y94.48 E122.53374
G0 F6000 X77.98 Y94.70
G0 X74.05 Y95.01
G0 X73.98 Y94.80
G1 F2400 X73.98 Y110.00 E122.63242
G0 F6000 X72.65 Y109.34
G1 F2400 X72.65 Y95.45 E122.72265
G0 F6000 X72.80 Y95.61
G0 X71.41 Y96.42
G0 X71.31 Y96.22
G1 F2400 X71.31 Y108.58 E122.80290
G0 F6000 X69.98 Y107.91
G1 F2400 X69.98 Y96.89 E122.87449
G0 F6000 X70.15 Y97.05
G0 X70.08 Y98.05
G0 X68.80 Y100.01
G0 X68.65 Y99.85
G1 F2400 X68.65 Y104.95 E122.90757
G1 F1800 E115.40757
G1 Z1.27
